affetto-software/affetto-nn-ctrl/tests/data/rand_traj_sync_0-1-2.dat
t,q0,q1,q2,q3,q4,q5,q6,q7,q8,q9,q10,q11,q12,dq0,dq1,dq2,dq3,dq4,dq5,dq6,dq7,dq8,dq9,dq10,dq11,dq12
0.0,50.0,50.0,50.0,50.0,50.0,50.0,50.0,50.0,50.0,50.0,50.0,50.0,50.0,0.0,-0.0,-0.0,0.0,0.0,0.0,0.0,0.0,0.0,0.0,0.0,0.0,0.0
0.001,50.000013406374705,49.99993188135065,49.999933595482176,50.0,50.0,50.0,50.0,50.0,50.0,50.0,50.0,50.0,50.0,0.026812749406445492,-0.13623729870237739,-0.13280903564568006,0.0,0.0,0.0,0.0,0.0,0.0,0.0,0.0,0.0,0.0
0.002,50.00005362549881,49.99972752540259,49.999734381928704,50.0,50.0,50.0,50.0,50.0,50.0,50.0,50.0,50.0,50.0,0.053625498812890984,-0.27247459740475477,-0.2656180712913601,0.0,0.0,0.0,0.0,0.0,0.0,0.0,0.0,0.0,0.0
0.003,50.00012065737233,49.99938693215584,49.9994023593396,50.0,50.0,50.0,50.0,50.0,50.0,50.0,50.0,50.0,50.0,0.08043824821933647,-0.40871189610713216,-0.39842710693704014,0.0,0.0,0.0,0.0,0.0,0.0,0.0,0.0,0.0,0.0
0.004,50.00021450199525,49.99891010161038,49.99893752771483,50.0,50.0,50.0,50.0,50.0,50.0,50.0,50.0,50.0,50.0,0.10725099762578197,-0.5449491948095095,-0.5312361425827202,0.0,0.0,0.0,0.0,0.0,0.0,0.0,0.0,0.0,0.0
0.005,50.00033515936758,49.99829703376622,49.99833988705443,50.0,50.0,50.0,50.0,50.0,50.0,50.0,50.0,50.0,50.0,0.13406374703222745,-0.6811864935118869,-0.6640451782284003,0.0,0.0,0.0,0.0,0.0,0.0,0.0,0.0,0.0,0.0
0.006,50.00048262948932,49.99754772862336,49.99760943735838,50.0,50.0,50.0,50.0,50.0,50.0,50.0,50.0,50.0,50.0,0.16087649643867294,-0.8174237922142643,-0.7968542138740803,0.0,0.0,0.0,0.0,0.0,0.0,0.0,0.0,0.0,0.0
0.007,50.00065691236046,49.996662186181794,49.99674617862668,50.0,50.0,50.0,50.0,50.0,50.0,50.0,50.0,50.0,50.0,0.18768924584511842,-0.9536610909166416,-0.9296632495197603,0.0,0.0,0.0,0.0,0.0,0.0,0.0,0.0,0.0,0.0
0.008,50.00085800798101,49.995640406441524,49.99575011085934,50.0,50.0,50.0,50.0,50.0,50.0,50.0,50.0,50.0,50.0,0.21450199525156394,-1.089898389619019,-1.0624722851654405,0.0,0.0,0.0,0.0,0.0,0.0,0.0,0.0,0.0,0.0
0.009,50.001085916350966,49.994482389402556,49.99462123405635,50.0,50.0,50.0,50.0,50.0,50.0,50.0,50.0,50.0,50.0,0.24131474465800942,-1.2261356883213963,-1.1952813208111204,0.0,0.0,0.0,0.0,0.0,0.0,0.0,0.0,0.0,0.0
0.01,50.00134063747032,49.993188135064884,49.99335954821772,50.0,50.0,50.0,50.0,50.0,50.0,50.0,50.0,50.0,50.0,0.2681274940644549,-1.3623729870237737,-1.3280903564568005,0.0,0.0,0.0,0.0,0.0,0.0,0.0,0.0,0.0,0.0
0.011,50.00162217133909,49.99175764342851,49.99196505334344,50.0,50.0,50.0,50.0,50.0,50.0,50.0,50.0,50.0,50.0,0.29494024347090037,-1.498610285726151,-1.4608993921024804,0.0,0.0,0.0,0.0,0.0,0.0,0.0,0.0,0.0,0.0
0.012,50.00193051795726,49.990190914493425,49.99043774943351,50.0,50.0,50.0,50.0,50.0,50.0,50.0,50.0,50.0,50.0,0.3217529928773459,-1.6348475844285286,-1.5937084277481606,0.0,0.0,0.0,0.0,0.0,0.0,0.0,0.0,0.0,0.0
0.013,50.00226567732485,49.98848794825965,49.988777636487946,50.0,50.0,50.0,50.0,50.0,50.0,50.0,50.0,50.0,50.0,0.3485657422837914,-1.7710848831309058,-1.7265174633938407,0.0,0.0,0.0,0.0,0.0,0.0,0.0,0.0,0.0,0.0
0.014,50.00262764944183,49.98664874472716,49.98698471450672,50.0,50.0,50.0,50.0,50.0,50.0,50.0,50.0,50.0,50.0,0.37537849169023685,-1.9073221818332833,-1.8593264990395206,0.0,0.0,0.0,0.0,0.0,0.0,0.0,0.0,0.0,0.0
0.015,50.00301643430823,49.98467330389598,49.985058983489864,50.0,50.0,50.0,50.0,50.0,50.0,50.0,50.0,50.0,50.0,0.4021912410966823,-2.0435594805356603,-1.9921355346852005,0.0,0.0,0.0,0.0,0.0,0.0,0.0,0.0,0.0,0.0
0.016,50.00343203192402,49.982561625766095,49.98300044343735,50.0,50.0,50.0,50.0,50.0,50.0,50.0,50.0,50.0,50.0,0.4290039905031279,-2.179796779238038,-2.124944570330881,0.0,0.0,0.0,0.0,0.0,0.0,0.0,0.0,0.0,0.0
0.017,50.00387444228923,49.980313710337505,49.9808090943492,50.0,50.0,50.0,50.0,50.0,50.0,50.0,50.0,50.0,50.0,0.45581673990957333,-2.3160340779404156,-2.257753605976561,0.0,0.0,0.0,0.0,0.0,0.0,0.0,0.0,0.0,0.0
0.018,50.004343665403844,49.97792955761022,49.9784849362254,50.0,50.0,50.0,50.0,50.0,50.0,50.0,50.0,50.0,50.0,0.48262948931601884,-2.4522713766427926,-2.3905626416222407,0.0,0.0,0.0,0.0,0.0,0.0,0.0,0.0,0.0,0.0
0.019,50.00483970126787,49.975409167584225,49.97602796906596,50.0,50.0,50.0,50.0,50.0,50.0,50.0,50.0,50.0,50.0,0.5094422387224643,-2.58850867534517,-2.523371677267921,0.0,0.0,0.0,0.0,0.0,0.0,0.0,0.0,0.0,0.0
0.02,50.00536254988128,49.97275254025952,49.97343819287086,50.0,50.0,50.0,50.0,50.0,50.0,50.0,50.0,50.0,50.0,0.5362549881289098,-2.7247459740475475,-2.656180712913601,0.0,0.0,0.0,0.0,0.0,0.0,0.0,0.0,0.0,0.0
0.021,50.00591221124412,49.969959675636126,49.97071560764013,50.0,50.0,50.0,50.0,50.0,50.0,50.0,50.0,50.0,50.0,0.5630677375353553,-2.8609832727499254,-2.788989748559281,0.0,0.0,0.0,0.0,0.0,0.0,0.0,0.0,0.0,0.0
0.022,50.00648868535636,49.96703057371402,49.96786021337375,50.0,50.0,50.0,50.0,50.0,50.0,50.0,50.0,50.0,50.0,0.5898804869418007,-2.997220571452302,-2.921798784204961,0.0,0.0,0.0,0.0,0.0,0.0,0.0,0.0,0.0,0.0
0.023,50.00709197221801,49.96396523449322,49.964872010071716,50.0,50.0,50.0,50.0,50.0,50.0,50.0,50.0,50.0,50.0,0.6166932363482462,-3.1334578701546794,-3.0546078198506406,0.0,0.0,0.0,0.0,0.0,0.0,0.0,0.0,0.0,0.0
0.024,50.00772207182905,49.960763657973715,49.96175099773404,50.0,50.0,50.0,50.0,50.0,50.0,50.0,50.0,50.0,50.0,0.6435059857546918,-3.2696951688570572,-3.187416855496321,0.0,0.0,0.0,0.0,0.0,0.0,0.0,0.0,0.0,0.0
0.025,50.00837898418951,49.9574258441555,49.95849717636072,50.0,50.0,50.0,50.0,50.0,50.0,50.0,50.0,50.0,50.0,0.6703187351611373,-3.4059324675594342,-3.3202258911420013,0.0,0.0,0.0,0.0,0.0,0.0,0.0,0.0,0.0,0.0
0.026,50.00906270929938,49.95395179303859,49.955110545951754,50.0,50.0,50.0,50.0,50.0,50.0,50.0,50.0,50.0,50.0,0.6971314845675828,-3.5421697662618117,-3.4530349267876814,0.0,0.0,0.0,0.0,0.0,0.0,0.0,0.0,0.0,0.0
0.027,50.00977324715865,49.950341504622976,49.951591106507145,50.0,50.0,50.0,50.0,50.0,50.0,50.0,50.0,50.0,50.0,0.7239442339740282,-3.678407064964189,-3.585843962433361,0.0,0.0,0.0,0.0,0.0,0.0,0.0,0.0,0.0,0.0
0.028,50.01051059776733,49.94659497890867,49.947938858026895,50.0,50.0,50.0,50.0,50.0,50.0,50.0,50.0,50.0,50.0,0.7507569833804737,-3.8146443636665666,-3.7186529980790413,0.0,0.0,0.0,0.0,0.0,0.0,0.0,0.0,0.0,0.0
0.029,50.011274761125414,49.942712215895654,49.944153800510996,50.0,50.0,50.0,50.0,50.0,50.0,50.0,50.0,50.0,50.0,0.7775697327869193,-3.950881662368944,-3.851462033724722,0.0,0.0,0.0,0.0,0.0,0.0,0.0,0.0,0.0,0.0
0.03,50.0120657372329,49.93869321558393,49.94023593395944,50.0,50.0,50.0,50.0,50.0,50.0,50.0,50.0,50.0,50.0,0.8043824821933646,-4.0871189610713206,-3.984271069370401,0.0,0.0,0.0,0.0,0.0,0.0,0.0,0.0,0.0,0.0
0.031,50.012883526089794,49.934537977973505,49.93618525837225,50.0,50.0,50.0,50.0,50.0,50.0,50.0,50.0,50.0,50.0,0.8311952315998101,-4.223356259773698,-4.117080105016081,0.0,0.0,0.0,0.0,0.0,0.0,0.0,0.0,0.0,0.0
0.032,50.0137281276961,49.93024650306438,49.93200177374941,50.0,50.0,50.0,50.0,50.0,50.0,50.0,50.0,50.0,50.0,0.8580079810062557,-4.359593558476076,-4.249889140661762,0.0,0.0,0.0,0.0,0.0,0.0,0.0,0.0,0.0,0.0
0.033,50.01459954205181,49.92581879085655,49.92768548009093,50.0,50.0,50.0,50.0,50.0,50.0,50.0,50.0,50.0,50.0,0.8848207304127012,-4.495830857178453,-4.382698176307442,0.0,0.0,0.0,0.0,0.0,0.0,0.0,0.0,0.0,0.0
0.034,50.01549776915692,49.92125484135002,49.9232363773968,50.0,50.0,50.0,50.0,50.0,50.0,50.0,50.0,50.0,50.0,0.9116334798191467,-4.632068155880831,-4.515507211953122,0.0,0.0,0.0,0.0,0.0,0.0,0.0,0.0,0.0,0.0
0.035,50.01642280901145,49.9165546545448,49.918654465667025,50.0,50.0,50.0,50.0,50.0,50.0,50.0,50.0,50.0,50.0,0.9384462292255923,-4.768305454583208,-4.648316247598802,0.0,0.0,0.0,0.0,0.0,0.0,0.0,0.0,0.0,0.0
0.036,50.01737466161537,49.911718230440854,49.9139397449016,50.0,50.0,50.0,50.0,50.0,50.0,50.0,50.0,50.0,50.0,0.9652589786320377,-4.904542753285585,-4.7811252832444815,0.0,0.0,0.0,0.0,0.0,0.0,0.0,0.0,0.0,0.0
0.037,50.01835332696871,49.90674556903822,49.90909221510053,50.0,50.0,50.0,50.0,50.0,50.0,50.0,50.0,50.0,50.0,0.9920717280384831,-5.040780051987963,-4.913934318890162,0.0,0.0,0.0,0.0,0.0,0.0,0.0,0.0,0.0,0.0
0.038,50.019358805071455,49.901636670336885,49.90411187626382,50.0,50.0,50.0,50.0,50.0,50.0,50.0,50.0,50.0,50.0,1.0188844774449286,-5.17701735069034,-5.046743354535842,0.0,0.0,0.0,0.0,0.0,0.0,0.0,0.0,0.0,0.0
0.039,50.0203910959236,49.89639153433684,49.89899872839146,50.0,50.0,50.0,50.0,50.0,50.0,50.0,50.0,50.0,50.0,1.045697226851374,-5.313254649392717,-5.179552390181522,0.0,0.0,0.0,0.0,0.0,0.0,0.0,0.0,0.0,0.0
0.04,50.02145019952516,49.8910101610381,49.89375277148346,50.0,50.0,50.0,50.0,50.0,50.0,50.0,50.0,50.0,50.0,1.0725099762578196,-5.449491948095095,-5.312361425827202,0.0,0.0,0.0,0.0,0.0,0.0,0.0,0.0,0.0,0.0
0.041,50.022536115876115,49.885492550440645,49.8883740055398,50.0,50.0,50.0,50.0,50.0,50.0,50.0,50.0,50.0,50.0,1.0993227256642653,-5.585729246797473,-5.445170461472883,0.0,0.0,0.0,0.0,0.0,0.0,0.0,0.0,0.0,0.0
0.042,50.023648844976485,49.879838702544504,49.88286243056051,50.0,50.0,50.0,50.0,50.0,50.0,50.0,50.0,50.0,50.0,1.1261354750707107,-5.721966545499851,-5.577979497118562,0.0,0.0,0.0,0.0,0.0,0.0,0.0,0.0,0.0,0.0
0.043,50.02478838682626,49.87404861734965,49.877218046545565,50.0,50.0,50.0,50.0,50.0,50.0,50.0,50.0,50.0,50.0,1.152948224477156,-5.858203844202227,-5.710788532764242,0.0,0.0,0.0,0.0,0.0,0.0,0.0,0.0,0.0,0.0
0.044,50.02595474142544,49.8681222948561,49.87144085349498,50.0,50.0,50.0,50.0,50.0,50.0,50.0,50.0,50.0,50.0,1.1797609738836015,-5.994441142904604,-5.843597568409922,0.0,0.0,0.0,0.0,0.0,0.0,0.0,0.0,0.0,0.0
0.045,50.027147908774026,49.862059735063845,49.86553085140875,50.0,50.0,50.0,50.0,50.0,50.0,50.0,50.0,50.0,50.0,1.2065737232900469,-6.130678441606981,-5.976406604055602,0.0,0.0,0.0,0.0,0.0,0.0,0.0,0.0,0.0,0.0
0.046,50.02836788887202,49.855860937972885,49.85948804028687,50.0,50.0,50.0,50.0,50.0,50.0,50.0,50.0,50.0,50.0,1.2333864726964925,-6.266915740309359,-6.109215639701281,0.0,0.0,0.0,0.0,0.0,0.0,0.0,0.0,0.0,0.0
0.047,50.02961468171942,49.84952590358323,49.85331242012935,50.0,50.0,50.0,50.0,50.0,50.0,50.0,50.0,50.0,50.0,1.260199222102938,-6.403153039011737,-6.242024675346963,0.0,0.0,0.0,0.0,0.0,0.0,0.0,0.0,0.0,0.0
0.048,50.03088828731622,49.84305463189486,49.84700399093617,50.0,50.0,50.0,50.0,50.0,50.0,50.0,50.0,50.0,50.0,1.2870119715093835,-6.5393903377141145,-6.374833710992642,0.0,0.0,0.0,0.0,0.0,0.0,0.0,0.0,0.0,0.0
0.049,50.03218870566244,49.8364471229078,49.84056275270736,50.0,50.0,50.0,50.0,50.0,50.0,50.0,50.0,50.0,50.0,1.3138247209158291,-6.6756276364164915,-6.507642746638322,0.0,0.0,0.0,0.0,0.0,0.0,0.0,0.0,0.0,0.0
0.05,50.03351593675806,49.829703376622035,49.833988705442906,50.0,50.0,50.0,50.0,50.0,50.0,50.0,50.0,50.0,50.0,1.3406374703222745,-6.8118649351188685,-6.640451782284003,0.0,0.0,0.0,0.0,0.0,0.0,0.0,0.0,0.0,0.0
0.051,50.034869980603084,49.82282339303756,49.8272818491428,50.0,50.0,50.0,50.0,50.0,50.0,50.0,50.0,50.0,50.0,1.3674502197287197,-6.9481022338212455,-6.773260817929682,0.0,0.0,0.0,0.0,0.0,0.0,0.0,0.0,0.0,0.0
0.052,50.036250837197514,49.815807172154386,49.820442183807046,50.0,50.0,50.0,50.0,50.0,50.0,50.0,50.0,50.0,50.0,1.3942629691351656,-7.084339532523623,-6.906069853575363,0.0,0.0,0.0,0.0,0.0,0.0,0.0,0.0,0.0,0.0
0.053,50.037658506541355,49.80865471397251,49.813469709435644,50.0,50.0,50.0,50.0,50.0,50.0,50.0,50.0,50.0,50.0,1.421075718541611,-7.220576831226,-7.038878889221042,0.0,0.0,0.0,0.0,0.0,0.0,0.0,0.0,0.0,0.0
0.054,50.0390929886346,49.80136601849194,49.8063644260286,50.0,50.0,50.0,50.0,50.0,50.0,50.0,50.0,50.0,50.0,1.4478884679480564,-7.356814129928378,-7.171687924866722,0.0,0.0,0.0,0.0,0.0,0.0,0.0,0.0,0.0,0.0
0.055,50.04055428347725,49.79394108571265,49.79912633358591,50.0,50.0,50.0,50.0,50.0,50.0,50.0,50.0,50.0,50.0,1.474701217354502,-7.493051428630755,-7.304496960512402,0.0,0.0,0.0,0.0,0.0,0.0,0.0,0.0,0.0,0.0
0.056,50.04204239106931,49.786379915634676,49.79175543210758,50.0,50.0,50.0,50.0,50.0,50.0,50.0,50.0,50.0,50.0,1.5015139667609474,-7.629288727333133,-7.4373059961580825,0.0,0.0,0.0,0.0,0.0,0.0,0.0,0.0,0.0,0.0
0.057,50.04355731141077,49.778682508257994,49.7842517215936,50.0,50.0,50.0,50.0,50.0,50.0,50.0,50.0,50.0,50.0,1.5283267161673928,-7.76552602603551,-7.570115031803763,0.0,0.0,0.0,0.0,0.0,0.0,0.0,0.0,0.0,0.0
0.058,50.04509904450164,49.7708488635826,49.77661520204397,50.0,50.0,50.0,50.0,50.0,50.0,50.0,50.0,50.0,50.0,1.5551394655738386,-7.901763324737888,-7.702924067449444,0.0,0.0,0.0,0.0,0.0,0.0,0.0,0.0,0.0,0.0
0.059,50.04666759034192,49.76287898160851,49.768845873458694,50.0,50.0,50.0,50.0,50.0,50.0,50.0,50.0,50.0,50.0,1.5819522149802838,-8.038000623440265,-7.835733103095122,0.0,0.0,0.0,0.0,0.0,0.0,0.0,0.0,0.0,0.0
0.06,50.0482629489316,49.75477286233572,49.76094373583777,50.0,50.0,50.0,50.0,50.0,50.0,50.0,50.0,50.0,50.0,1.6087649643867292,-8.174237922142641,-7.968542138740802,0.0,0.0,0.0,0.0,0.0,0.0,0.0,0.0,0.0,0.0
0.061,50.049885120270694,49.74653050576423,49.75290878918121,50.0,50.0,50.0,50.0,50.0,50.0,50.0,50.0,50.0,50.0,1.6355777137931748,-8.310475220845019,-8.101351174386483,0.0,0.0,0.0,0.0,0.0,0.0,0.0,0.0,0.0,0.0
0.062,50.05153410435919,49.738151911894036,49.74474103348901,50.0,50.0,50.0,50.0,50.0,50.0,50.0,50.0,50.0,50.0,1.6623904631996202,-8.446712519547397,-8.234160210032162,0.0,0.0,0.0,0.0,0.0,0.0,0.0,0.0,0.0,0.0
0.063,50.05320990119709,49.729637080725134,49.73644046876115,50.0,50.0,50.0,50.0,50.0,50.0,50.0,50.0,50.0,50.0,1.6892032126060659,-8.582949818249775,-8.366969245677844,0.0,0.0,0.0,0.0,0.0,0.0,0.0,0.0,0.0,0.0
0.064,50.0549125107844,49.72098601225753,49.72800709499764,50.0,50.0,50.0,50.0,50.0,50.0,50.0,50.0,50.0,50.0,1.7160159620125115,-8.719187116952153,-8.499778281323524,0.0,0.0,0.0,0.0,0.0,0.0,0.0,0.0,0.0,0.0
0.065,50.05664193312112,49.71219870649123,49.7194409121985,50.0,50.0,50.0,50.0,50.0,50.0,50.0,50.0,50.0,50.0,1.742828711418957,-8.855424415654529,-8.632587316969204,0.0,0.0,0.0,0.0,0.0,0.0,0.0,0.0,0.0,0.0
0.066,50.05839816820724,49.70327516342622,49.71074192036371,50.0,50.0,50.0,50.0,50.0,50.0,50.0,50.0,50.0,50.0,1.7696414608254023,-8.991661714356907,-8.765396352614884,0.0,0.0,0.0,0.0,0.0,0.0,0.0,0.0,0.0,0.0
0.067,50.06018121604277,49.69421538306252,49.70191011949328,50.0,50.0,50.0,50.0,50.0,50.0,50.0,50.0,50.0,50.0,1.796454210231848,-9.127899013059285,-8.898205388260564,0.0,0.0,0.0,0.0,0.0,0.0,0.0,0.0,0.0,0.0
0.068,50.061991076627706,49.68501936540011,49.69294550958719,50.0,50.0,50.0,50.0,50.0,50.0,50.0,50.0,50.0,50.0,1.8232669596382933,-9.264136311761662,-9.031014423906244,0.0,0.0,0.0,0.0,0.0,0.0,0.0,0.0,0.0,0.0
0.069,50.063827749962044,49.67568711043899,49.683848090645455,50.0,50.0,50.0,50.0,50.0,50.0,50.0,50.0,50.0,50.0,1.850079709044739,-9.40037361046404,-9.163823459551924,0.0,0.0,0.0,0.0,0.0,0.0,0.0,0.0,0.0,0.0
0.07,50.065691236045794,49.66621861817917,49.674617862668086,50.0,50.0,50.0,50.0,50.0,50.0,50.0,50.0,50.0,50.0,1.8768924584511846,-9.536610909166416,-9.296632495197604,0.0,0.0,0.0,0.0,0.0,0.0,0.0,0.0,0.0,0.0
0.071,50.06758153487895,49.656613888620655,49.66525482565506,50.0,50.0,50.0,50.0,50.0,50.0,50.0,50.0,50.0,50.0,1.9037052078576295,-9.672848207868793,-9.429441530843283,0.0,0.0,0.0,0.0,0.0,0.0,0.0,0.0,0.0,0.0
0.072,50.069498646461504,49.64687292176343,49.6557589796064,50.0,50.0,50.0,50.0,50.0,50.0,50.0,50.0,50.0,50.0,1.9305179572640754,-9.80908550657117,-9.562250566488963,0.0,0.0,0.0,0.0,0.0,0.0,0.0,0.0,0.0,0.0
0.073,50.07144257079347,49.63699571760752,49.64613032452208,50.0,50.0,50.0,50.0,50.0,50.0,50.0,50.0,50.0,50.0,1.9573307066705206,-9.945322805273547,-9.695059602134643,0.0,0.0,0.0,0.0,0.0,0.0,0.0,0.0,0.0,0.0
0.074,50.07341330787485,49.626982276152894,49.63636886040213,50.0,50.0,50.0,50.0,50.0,50.0,50.0,50.0,50.0,50.0,1.9841434560769662,-10.081560103975926,-9.827868637780323,0.0,0.0,0.0,0.0,0.0,0.0,0.0,0.0,0.0,0.0
0.075,50.075410857705634,49.616832597399565,49.62647458724653,50.0,50.0,50.0,50.0,50.0,50.0,50.0,50.0,50.0,50.0,2.0109562054834114,-10.217797402678302,-9.960677673426002,0.0,0.0,0.0,0.0,0.0,0.0,0.0,0.0,0.0,0.0
0.076,50.077435220285814,49.60654668134753,49.61644750505528,50.0,50.0,50.0,50.0,50.0,50.0,50.0,50.0,50.0,50.0,2.037768954889857,-10.35403470138068,-10.093486709071684,0.0,0.0,0.0,0.0,0.0,0.0,0.0,0.0,0.0,0.0
0.077,50.079486395615405,49.5961245279968,49.60628761382838,50.0,50.0,50.0,50.0,50.0,50.0,50.0,50.0,50.0,50.0,2.064581704296303,-10.490272000083058,-10.226295744717364,0.0,0.0,0.0,0.0,0.0,0.0,0.0,0.0,0.0,0.0
0.078,50.0815643836944,49.585566137347364,49.59599491356584,50.0,50.0,50.0,50.0,50.0,50.0,50.0,50.0,50.0,50.0,2.091394453702748,-10.626509298785434,-10.359104780363044,0.0,0.0,0.0,0.0,0.0,0.0,0.0,0.0,0.0,0.0
0.079,50.08366918452281,49.57487150939923,49.58556940426765,50.0,50.0,50.0,50.0,50.0,50.0,50.0,50.0,50.0,50.0,2.118207203109194,-10.762746597487814,-10.491913816008724,0.0,0.0,0.0,0.0,0.0,0.0,0.0,0.0,0.0,0.0
0.08,50.08580079810062,49.564040644152385,49.575011085933816,50.0,50.0,50.0,50.0,50.0,50.0,50.0,50.0,50.0,50.0,2.1450199525156393,-10.89898389619019,-10.624722851654404,0.0,0.0,0.0,0.0,0.0,0.0,0.0,0.0,0.0,0.0
0.081,50.08795922442785,49.55307354160686,49.564319958564354,50.0,50.0,50.0,50.0,50.0,50.0,50.0,50.0,50.0,50.0,2.1718327019220847,-11.035221194892568,-10.757531887300084,0.0,0.0,0.0,0.0,0.0,0.0,0.0,0.0,0.0,0.0
0.082,50.090144463504465,49.54197020176261,49.55349602215922,50.0,50.0,50.0,50.0,50.0,50.0,50.0,50.0,50.0,50.0,2.1986454513285305,-11.171458493594946,-10.890340922945766,0.0,0.0,0.0,0.0,0.0,0.0,0.0,0.0,0.0,0.0
0.083,50.0923565153305,49.53073062461966,49.54253927671845,50.0,50.0,50.0,50.0,50.0,50.0,50.0,50.0,50.0,50.0,2.225458200734976,-11.307695792297322,-11.023149958591445,0.0,0.0,0.0,0.0,0.0,0.0,0.0,0.0,0.0,0.0
0.084,50.09459537990594,49.51935481017801,49.53144972224204,50.0,50.0,50.0,50.0,50.0,50.0,50.0,50.0,50.0,50.0,2.2522709501414213,-11.443933090999701,-11.155958994237125,0.0,0.0,0.0,0.0,0.0,0.0,0.0,0.0,0.0,0.0
0.085,50.09686105723079,49.50784275843766,49.52022735872998,50.0,50.0,50.0,50.0,50.0,50.0,50.0,50.0,50.0,50.0,2.2790836995478667,-11.580170389702078,-11.288768029882805,0.0,0.0,0.0,0.0,0.0,0.0,0.0,0.0,0.0,0.0
0.086,50.099153547305036,49.49619446939861,49.50887218618227,50.0,50.0,50.0,50.0,50.0,50.0,50.0,50.0,50.0,50.0,2.305896448954312,-11.716407688404454,-11.421577065528483,0.0,0.0,0.0,0.0,0.0,0.0,0.0,0.0,0.0,0.0
0.087,50.101472850128694,49.484409943060854,49.49738420459892,50.0,50.0,50.0,50.0,50.0,50.0,50.0,50.0,50.0,50.0,2.3327091983607575,-11.852644987106832,-11.554386101174165,0.0,0.0,0.0,0.0,0.0,0.0,0.0,0.0,0.0,0.0
0.088,50.103818965701755,49.47248917942439,49.48576341397993,50.0,50.0,50.0,50.0,50.0,50.0,50.0,50.0,50.0,50.0,2.359521947767203,-11.988882285809208,-11.687195136819843,0.0,0.0,0.0,0.0,0.0,0.0,0.0,0.0,0.0,0.0
0.089,50.10619189402423,49.460432178489235,49.474009814325285,50.0,50.0,50.0,50.0,50.0,50.0,50.0,50.0,50.0,50.0,2.3863346971736488,-12.125119584511586,-11.820004172465524,0.0,0.0,0.0,0.0,0.0,0.0,0.0,0.0,0.0,0.0
0.09,50.108591635096104,49.44823894025537,49.462123405635,50.0,50.0,50.0,50.0,50.0,50.0,50.0,50.0,50.0,50.0,2.4131474465800937,-12.261356883213962,-11.952813208111204,0.0,0.0,0.0,0.0,0.0,0.0,0.0,0.0,0.0,0.0
0.091,50.111018188917384,49.435909464722805,49.45010418790906,50.0,50.0,50.0,50.0,50.0,50.0,50.0,50.0,50.0,50.0,2.4399601959865396,-12.397594181916341,-12.085622243756884,0.0,0.0,0.0,0.0,0.0,0.0,0.0,0.0,0.0,0.0
0.092,50.11347155548808,49.42344375189154,49.437952161147486,50.0,50.0,50.0,50.0,50.0,50.0,50.0,50.0,50.0,50.0,2.466772945392985,-12.533831480618717,-12.218431279402562,0.0,0.0,0.0,0.0,0.0,0.0,0.0,0.0,0.0,0.0
0.093,50.11595173480818,49.41084180176158,49.42566732535026,50.0,50.0,50.0,50.0,50.0,50.0,50.0,50.0,50.0,50.0,2.4935856947994304,-12.670068779321095,-12.351240315048244,0.0,0.0,0.0,0.0,0.0,0.0,0.0,0.0,0.0,0.0
0.094,50.11845872687768,49.398103614332896,49.41324968051739,50.0,50.0,50.0,50.0,50.0,50.0,50.0,50.0,50.0,50.0,2.520398444205876,-12.806306078023473,-12.484049350693926,0.0,0.0,0.0,0.0,0.0,0.0,0.0,0.0,0.0,0.0
0.095,50.12099253169659,49.385229189605525,49.40069922664887,50.0,50.0,50.0,50.0,50.0,50.0,50.0,50.0,50.0,50.0,2.5472111936123216,-12.94254337672585,-12.616858386339604,0.0,0.0,0.0,0.0,0.0,0.0,0.0,0.0,0.0,0.0
0.096,50.1235531492649,49.37221852757944,49.38801596374471,50.0,50.0,50.0,50.0,50.0,50.0,50.0,50.0,50.0,50.0,2.574023943018767,-13.078780675428229,-12.749667421985285,0.0,0.0,0.0,0.0,0.0,0.0,0.0,0.0,0.0,0.0
0.097,50.126140579582625,49.35907162825467,49.375199891804904,50.0,50.0,50.0,50.0,50.0,50.0,50.0,50.0,50.0,50.0,2.6008366924252124,-13.215017974130605,-12.882476457630965,0.0,0.0,0.0,0.0,0.0,0.0,0.0,0.0,0.0,0.0
0.098,50.12875482264975,49.34578849163118,49.362251010829446,50.0,50.0,50.0,50.0,50.0,50.0,50.0,50.0,50.0,50.0,2.6276494418316583,-13.351255272832983,-13.015285493276645,0.0,0.0,0.0,0.0,0.0,0.0,0.0,0.0,0.0,0.0
0.099,50.131395878466286,49.332369117709,49.34916932081834,50.0,50.0,50.0,50.0,50.0,50.0,50.0,50.0,50.0,50.0,2.6544621912381037,-13.48749257153536,-13.148094528922327,0.0,0.0,0.0,0.0,0.0,0.0,0.0,0.0,0.0,0.0
0.1,50.13406374703223,49.31881350648811,49.3359548217716,50.0,50.0,50.0,50.0,50.0,50.0,50.0,50.0,50.0,50.0,2.681274940644549,-13.623729870237737,-13.280903564568005,0.0,0.0,0.0,0.0,0.0,0.0,0.0,0.0,0.0,0.0
0.101,50.13675842834758,49.30512165796853,49.322607513689206,50.0,50.0,50.0,50.0,50.0,50.0,50.0,50.0,50.0,50.0,2.708087690050995,-13.759967168940117,-13.413712600213687,0.0,0.0,0.0,0.0,0.0,0.0,0.0,0.0,0.0,0.0
0.102,50.13947992241233,49.29129357215023,49.30912739657117,50.0,50.0,50.0,50.0,50.0,50.0,50.0,50.0,50.0,50.0,2.7349004394574394,-13.896204467642491,-13.546521635859364,0.0,0.0,0.0,0.0,0.0,0.0,0.0,0.0,0.0,0.0
0.103,50.14222822922649,49.27732924903324,49.29551447041749,50.0,50.0,50.0,50.0,50.0,50.0,50.0,50.0,50.0,50.0,2.7617131888638853,-14.032441766344869,-13.679330671505044,0.0,0.0,0.0,0.0,0.0,0.0,0.0,0.0,0.0,0.0
0.104,50.145003348790055,49.26322868861754,49.28176873522816,50.0,50.0,50.0,50.0,50.0,50.0,50.0,50.0,50.0,50.0,2.788525938270331,-14.168679065047247,-13.812139707150726,0.0,0.0,0.0,0.0,0.0,0.0,0.0,0.0,0.0,0.0
0.105,50.14780528110303,49.24899189090314,49.26789019100319,50.0,50.0,50.0,50.0,50.0,50.0,50.0,50.0,50.0,50.0,2.815338687676776,-14.304916363749623,-13.944948742796404,0.0,0.0,0.0,0.0,0.0,0.0,0.0,0.0,0.0,0.0
0.106,50.150634026165406,49.23461885589004,49.25387883774256,50.0,50.0,50.0,50.0,50.0,50.0,50.0,50.0,50.0,50.0,2.842151437083222,-14.441153662452,-14.077757778442084,0.0,0.0,0.0,0.0,0.0,0.0,0.0,0.0,0.0,0.0
0.107,50.1534895839772,49.22010958357824,49.23973467544631,50.0,50.0,50.0,50.0,50.0,50.0,50.0,50.0,50.0,50.0,2.8689641864896673,-14.577390961154379,-14.210566814087764,0.0,0.0,0.0,0.0,0.0,0.0,0.0,0.0,0.0,0.0
0.108,50.156371954538386,49.20546407396773,49.22545770411439,50.0,50.0,50.0,50.0,50.0,50.0,50.0,50.0,50.0,50.0,2.8957769358961127,-14.713628259856756,-14.343375849733444,0.0,0.0,0.0,0.0,0.0,0.0,0.0,0.0,0.0,0.0
0.109,50.15928113784899,49.19068232705853,49.21104792374684,50.0,50.0,50.0,50.0,50.0,50.0,50.0,50.0,50.0,50.0,2.9225896853025586,-14.849865558559134,-14.476184885379126,0.0,0.0,0.0,0.0,0.0,0.0,0.0,0.0,0.0,0.0
0.11,50.162217133908996,49.17576434285062,49.196505334343634,50.0,50.0,50.0,50.0,50.0,50.0,50.0,50.0,50.0,50.0,2.949402434709004,-14.98610285726151,-14.608993921024805,0.0,0.0,0.0,0.0,0.0,0.0,0.0,0.0,0.0,0.0
0.111,50.1651799427184,49.160710121344,49.18182993590479,50.0,50.0,50.0,50.0,50.0,50.0,50.0,50.0,50.0,50.0,2.9762151841154494,-15.122340155963888,-14.741802956670487,0.0,0.0,0.0,0.0,0.0,0.0,0.0,0.0,0.0,0.0
0.112,50.16816956427723,49.14551966253869,49.16702172843029,50.0,50.0,50.0,50.0,50.0,50.0,50.0,50.0,50.0,50.0,3.003027933521895,-15.258577454666266,-14.874611992316165,0.0,0.0,0.0,0.0,0.0,0.0,0.0,0.0,0.0,0.0
0.113,50.17118599858545,49.13019296643467,49.152080711920156,50.0,50.0,50.0,50.0,50.0,50.0,50.0,50.0,50.0,50.0,3.0298406829283406,-15.394814753368644,-15.007421027961845,0.0,0.0,0.0,0.0,0.0,0.0,0.0,0.0,0.0,0.0
0.114,50.174229245643076,49.11473003303195,49.137006886374365,50.0,50.0,50.0,50.0,50.0,50.0,50.0,50.0,50.0,50.0,3.0566534323347856,-15.53105205207102,-15.140230063607525,0.0,0.0,0.0,0.0,0.0,0.0,0.0,0.0,0.0,0.0
0.115,50.17729930545012,49.09913086233053,49.12180025179294,50.0,50.0,50.0,50.0,50.0,50.0,50.0,50.0,50.0,50.0,3.0834661817412314,-15.667289350773398,-15.273039099253205,0.0,0.0,0.0,0.0,0.0,0.0,0.0,0.0,0.0,0.0
0.116,50.18039617800657,49.08339545433041,49.10646080817587,50.0,50.0,50.0,50.0,50.0,50.0,50.0,50.0,50.0,50.0,3.1102789311476773,-15.803526649475776,-15.405848134898887,0.0,0.0,0.0,0.0,0.0,0.0,0.0,0.0,0.0,0.0
0.117,50.18351986331241,49.06752380903158,49.09098855552314,50.0,50.0,50.0,50.0,50.0,50.0,50.0,50.0,50.0,50.0,3.1370916805541222,-15.939763948178154,-15.538657170544566,0.0,0.0,0.0,0.0,0.0,0.0,0.0,0.0,0.0,0.0
0.118,50.186670361367675,49.05151592643405,49.07538349383478,50.0,50.0,50.0,50.0,50.0,50.0,50.0,50.0,50.0,50.0,3.1639044299605676,-16.07600124688053,-15.671466206190244,0.0,0.0,0.0,0.0,0.0,0.0,0.0,0.0,0.0,0.0
0.119,50.18984767217234,49.03537180653782,49.05964562311077,50.0,50.0,50.0,50.0,50.0,50.0,50.0,50.0,50.0,50.0,3.190717179367013,-16.212238545582906,-15.804275241835924,0.0,0.0,0.0,0.0,0.0,0.0,0.0,0.0,0.0,0.0
0.12,50.19305179572641,49.01909144934289,49.04377494335111,50.0,50.0,50.0,50.0,50.0,50.0,50.0,50.0,50.0,50.0,3.2175299287734584,-16.348475844285282,-15.937084277481604,0.0,0.0,0.0,0.0,0.0,0.0,0.0,0.0,0.0,0.0
0.121,50.19628273202988,49.00267485484924,49.0277714545558,50.0,50.0,50.0,50.0,50.0,50.0,50.0,50.0,50.0,50.0,3.2443426781799043,-16.484713142987662,-16.069893313127285,0.0,0.0,0.0,0.0,0.0,0.0,0.0,0.0,0.0,0.0
0.122,50.19954048108277,48.98612202305691,49.01163515672485,50.0,50.0,50.0,50.0,50.0,50.0,50.0,50.0,50.0,50.0,3.2711554275863497,-16.620950441690038,-16.202702348772966,0.0,0.0,0.0,0.0,0.0,0.0,0.0,0.0,0.0,0.0
0.123,50.20282504288506,48.96943295396587,48.99536604985826,50.0,50.0,50.0,50.0,50.0,50.0,50.0,50.0,50.0,50.0,3.297968176992795,-16.757187740392418,-16.335511384418645,0.0,0.0,0.0,0.0,0.0,0.0,0.0,0.0,0.0,0.0
0.124,50.20613641743675,48.95260764757612,48.97896413395601,50.0,50.0,50.0,50.0,50.0,50.0,50.0,50.0,50.0,50.0,3.3247809263992405,-16.893425039094794,-16.468320420064323,0.0,0.0,0.0,0.0,0.0,0.0,0.0,0.0,0.0,0.0
0.125,50.20947460473785,48.93564610388768,48.96242940901812,50.0,50.0,50.0,50.0,50.0,50.0,50.0,50.0,50.0,50.0,3.3515936758056863,-17.02966233779717,-16.601129455710005,0.0,0.0,0.0,0.0,0.0,0.0,0.0,0.0,0.0,0.0
0.126,50.212839604788364,48.91854832290053,48.94576187504459,50.0,50.0,50.0,50.0,50.0,50.0,50.0,50.0,50.0,50.0,3.3784064252121317,-17.16589963649955,-16.733938491355687,0.0,0.0,0.0,0.0,0.0,0.0,0.0,0.0,0.0,0.0
0.127,50.216231417588276,48.90131430461468,48.92896153203541,50.0,50.0,50.0,50.0,50.0,50.0,50.0,50.0,50.0,50.0,3.405219174618577,-17.302136935201926,-16.866747527001365,0.0,0.0,0.0,0.0,0.0,0.0,0.0,0.0,0.0,0.0
0.128,50.2196500431376,48.88394404903012,48.91202837999059,50.0,50.0,50.0,50.0,50.0,50.0,50.0,50.0,50.0,50.0,3.432031924025023,-17.438374233904305,-16.999556562647047,0.0,0.0,0.0,0.0,0.0,0.0,0.0,0.0,0.0,0.0
0.129,50.223095481436324,48.86643755614686,48.89496241891011,50.0,50.0,50.0,50.0,50.0,50.0,50.0,50.0,50.0,50.0,3.458844673431468,-17.57461153260668,-17.132365598292726,0.0,0.0,0.0,0.0,0.0,0.0,0.0,0.0,0.0,0.0
0.13,50.22656773248446,48.84879482596491,48.877763648794,50.0,50.0,50.0,50.0,50.0,50.0,50.0,50.0,50.0,50.0,3.485657422837914,-17.710848831309058,-17.265174633938408,0.0,0.0,0.0,0.0,0.0,0.0,0.0,0.0,0.0,0.0
0.131,50.230066796282,48.83101585848424,48.860432069642236,50.0,50.0,50.0,50.0,50.0,50.0,50.0,50.0,50.0,50.0,3.5124701722443596,-17.847086130011437,-17.39798366958409,0.0,0.0,0.0,0.0,0.0,0.0,0.0,0.0,0.0,0.0
0.132,50.23359267282895,48.813100653704886,48.84296768145483,50.0,50.0,50.0,50.0,50.0,50.0,50.0,50.0,50.0,50.0,3.5392829216508046,-17.983323428713813,-17.530792705229768,0.0,0.0,0.0,0.0,0.0,0.0,0.0,0.0,0.0,0.0
0.133,50.23714536212531,48.795049211626825,48.82537048423179,50.0,50.0,50.0,50.0,50.0,50.0,50.0,50.0,50.0,50.0,3.5660956710572504,-18.119560727416193,-17.663601740875446,0.0,0.0,0.0,0.0,0.0,0.0,0.0,0.0,0.0,0.0
0.134,50.240724864171064,48.77686153225005,48.80764047797308,50.0,50.0,50.0,50.0,50.0,50.0,50.0,50.0,50.0,50.0,3.592908420463696,-18.25579802611857,-17.796410776521128,0.0,0.0,0.0,0.0,0.0,0.0,0.0,0.0,0.0,0.0
0.135,50.244331178966235,48.75853761557459,48.789777662678745,50.0,50.0,50.0,50.0,50.0,50.0,50.0,50.0,50.0,50.0,3.6197211698701413,-18.392035324820945,-17.929219812166806,0.0,0.0,0.0,0.0,0.0,0.0,0.0,0.0,0.0,0.0
0.136,50.24796430651081,48.740077461600414,48.771782038348746,50.0,50.0,50.0,50.0,50.0,50.0,50.0,50.0,50.0,50.0,3.6465339192765867,-18.528272623523325,-18.06202884781249,0.0,0.0,0.0,0.0,0.0,0.0,0.0,0.0,0.0,0.0
0.137,50.25162424680478,48.721481070327535,48.75365360498311,50.0,50.0,50.0,50.0,50.0,50.0,50.0,50.0,50.0,50.0,3.6733466686830325,-18.6645099222257,-18.194837883458167,0.0,0.0,0.0,0.0,0.0,0.0,0.0,0.0,0.0,0.0
0.138,50.25531099984817,48.70274844175596,48.735392362581834,50.0,50.0,50.0,50.0,50.0,50.0,50.0,50.0,50.0,50.0,3.700159418089478,-18.80074722092808,-18.32764691910385,0.0,0.0,0.0,0.0,0.0,0.0,0.0,0.0,0.0,0.0
0.139,50.25902456564096,48.68387957588568,48.716998311144906,50.0,50.0,50.0,50.0,50.0,50.0,50.0,50.0,50.0,50.0,3.7269721674959233,-18.936984519630457,-18.460455954749527,0.0,0.0,0.0,0.0,0.0,0.0,0.0,0.0,0.0,0.0
0.14,50.26276494418316,48.6648744727167,48.698471450672336,50.0,50.0,50.0,50.0,50.0,50.0,50.0,50.0,50.0,50.0,3.753784916902369,-19.073221818332833,-18.59326499039521,0.0,0.0,0.0,0.0,0.0,0.0,0.0,0.0,0.0,0.0
0.141,50.266532135474776,48.64573313224902,48.67981178116412,50.0,50.0,50.0,50.0,50.0,50.0,50.0,50.0,50.0,50.0,3.780597666308814,-19.20945911703521,-18.726074026040887,0.0,0.0,0.0,0.0,0.0,0.0,0.0,0.0,0.0,0.0
0.142,50.27032613951578,48.62645555448263,48.661019302620254,50.0,50.0,50.0,50.0,50.0,50.0,50.0,50.0,50.0,50.0,3.807410415715259,-19.345696415737585,-18.858883061686566,0.0,0.0,0.0,0.0,0.0,0.0,0.0,0.0,0.0,0.0
0.143,50.274146956306204,48.60704173941755,48.64209401504075,50.0,50.0,50.0,50.0,50.0,50.0,50.0,50.0,50.0,50.0,3.834223165121705,-19.481933714439965,-18.991692097332244,0.0,0.0,0.0,0.0,0.0,0.0,0.0,0.0,0.0,0.0
0.144,50.277994585846024,48.58749168705375,48.623035918425586,50.0,50.0,50.0,50.0,50.0,50.0,50.0,50.0,50.0,50.0,3.8610359145281508,-19.61817101314234,-19.124501132977926,0.0,0.0,0.0,0.0,0.0,0.0,0.0,0.0,0.0,0.0
0.145,50.28186902813526,48.56780539739126,48.60384501277479,50.0,50.0,50.0,50.0,50.0,50.0,50.0,50.0,50.0,50.0,3.8878486639345953,-19.754408311844717,-19.257310168623604,0.0,0.0,0.0,0.0,0.0,0.0,0.0,0.0,0.0,0.0
0.146,50.285770283173896,48.54798287043006,48.58452129808834,50.0,50.0,50.0,50.0,50.0,50.0,50.0,50.0,50.0,50.0,3.914661413341041,-19.890645610547093,-19.390119204269286,0.0,0.0,0.0,0.0,0.0,0.0,0.0,0.0,0.0,0.0
0.147,50.28969835096194,48.528024106170164,48.56506477436625,50.0,50.0,50.0,50.0,50.0,50.0,50.0,50.0,50.0,50.0,3.941474162747487,-20.026882909249473,-19.522928239914965,0.0,0.0,0.0,0.0,0.0,0.0,0.0,0.0,0.0,0.0
0.148,50.2936532314994,48.50792910461157,48.54547544160852,50.0,50.0,50.0,50.0,50.0,50.0,50.0,50.0,50.0,50.0,3.9682869121539324,-20.163120207951852,-19.655737275560647,0.0,0.0,0.0,0.0,0.0,0.0,0.0,0.0,0.0,0.0
0.149,50.29763492478625,48.487697865754264,48.52575329981513,50.0,50.0,50.0,50.0,50.0,50.0,50.0,50.0,50.0,50.0,3.995099661560378,-20.29935750665423,-19.78854631120633,0.0,0.0,0.0,0.0,0.0,0.0,0.0,0.0,0.0,0.0
0.15,50.30164343082251,48.46733038959825,48.50589834898609,50.0,50.0,50.0,50.0,50.0,50.0,50.0,50.0,50.0,50.0,4.021912410966823,-20.435594805356605,-19.921355346852003,0.0,0.0,0.0,0.0,0.0,0.0,0.0,0.0,0.0,0.0
0.151,50.305678749608184,48.44682667614355,48.48591058912143,50.0,50.0,50.0,50.0,50.0,50.0,50.0,50.0,50.0,50.0,4.048725160373269,-20.57183210405898,-20.054164382497685,0.0,0.0,0.0,0.0,0.0,0.0,0.0,0.0,0.0,0.0
0.152,50.309740881143256,48.42618672539014,48.4657900202211,50.0,50.0,50.0,50.0,50.0,50.0,50.0,50.0,50.0,50.0,4.075537909779714,-20.70806940276136,-20.186973418143367,0.0,0.0,0.0,0.0,0.0,0.0,0.0,0.0,0.0,0.0
0.153,50.31382982542774,48.40541053733802,48.445536642285134,50.0,50.0,50.0,50.0,50.0,50.0,50.0,50.0,50.0,50.0,4.10235065918616,-20.84430670146374,-20.31978245378905,0.0,0.0,0.0,0.0,0.0,0.0,0.0,0.0,0.0,0.0
0.154,50.31794558246163,48.38449811198721,48.42515045531353,50.0,50.0,50.0,50.0,50.0,50.0,50.0,50.0,50.0,50.0,4.129163408592606,-20.980544000166116,-20.452591489434727,0.0,0.0,0.0,0.0,0.0,0.0,0.0,0.0,0.0,0.0
0.155,50.32208815224493,48.36344944933769,48.404631459306266,50.0,50.0,50.0,50.0,50.0,50.0,50.0,50.0,50.0,50.0,4.15597615799905,-21.116781298868492,-20.585400525080406,0.0,0.0,0.0,0.0,0.0,0.0,0.0,0.0,0.0,0.0
0.156,50.32625753477763,48.342264549389476,48.38397965426337,50.0,50.0,50.0,50.0,50.0,50.0,50.0,50.0,50.0,50.0,4.182788907405496,-21.25301859757087,-20.718209560726088,0.0,0.0,0.0,0.0,0.0,0.0,0.0,0.0,0.0,0.0
0.157,50.330453730059745,48.320943412142555,48.36319504018482,50.0,50.0,50.0,50.0,50.0,50.0,50.0,50.0,50.0,50.0,4.209601656811942,-21.389255896273248,-20.851018596371766,0.0,0.0,0.0,0.0,0.0,0.0,0.0,0.0,0.0,0.0
0.158,50.334676738091254,48.29948603759693,48.34227761707062,50.0,50.0,50.0,50.0,50.0,50.0,50.0,50.0,50.0,50.0,4.236414406218388,-21.525493194975628,-20.983827632017448,0.0,0.0,0.0,0.0,0.0,0.0,0.0,0.0,0.0,0.0
0.159,50.338926558872174,48.2778924257526,48.32122738492078,50.0,50.0,50.0,50.0,50.0,50.0,50.0,50.0,50.0,50.0,4.263227155624834,-21.661730493678004,-21.11663666766313,0.0,0.0,0.0,0.0,0.0,0.0,0.0,0.0,0.0,0.0
0.16,50.343203192402505,48.256162576609576,48.3000443437353,50.0,50.0,50.0,50.0,50.0,50.0,50.0,50.0,50.0,50.0,4.2900399050312785,-21.79796779238038,-21.249445703308808,0.0,0.0,0.0,0.0,0.0,0.0,0.0,0.0,0.0,0.0
0.161,50.34750663868223,48.234296490167836,48.27872849351416,50.0,50.0,50.0,50.0,50.0,50.0,50.0,50.0,50.0,50.0,4.3168526544377235,-21.934205091082756,-21.382254738954487,0.0,0.0,0.0,0.0,0.0,0.0,0.0,0.0,0.0,0.0
0.162,50.35183689771138,48.212294166427405,48.25727983425738,50.0,50.0,50.0,50.0,50.0,50.0,50.0,50.0,50.0,50.0,4.343665403844169,-22.070442389785136,-21.51506377460017,0.0,0.0,0.0,0.0,0.0,0.0,0.0,0.0,0.0,0.0
0.163,50.35619396948993,48.19015560538827,48.235698365964964,50.0,50.0,50.0,50.0,50.0,50.0,50.0,50.0,50.0,50.0,4.370478153250615,-22.206679688487515,-21.64787281024585,0.0,0.0,0.0,0.0,0.0,0.0,0.0,0.0,0.0,0.0
0.164,50.36057785401788,48.16788080705043,48.2139840886369,50.0,50.0,50.0,50.0,50.0,50.0,50.0,50.0,50.0,50.0,4.397290902657061,-22.34291698718989,-21.780681845891532,0.0,0.0,0.0,0.0,0.0,0.0,0.0,0.0,0.0,0.0
0.165,50.36498855129524,48.14546977141389,48.192137002273185,50.0,50.0,50.0,50.0,50.0,50.0,50.0,50.0,50.0,50.0,4.424103652063506,-22.479154285892267,-21.913490881537207,0.0,0.0,0.0,0.0,0.0,0.0,0.0,0.0,0.0,0.0
0.166,50.36942606132201,48.122922498478644,48.17015710687382,50.0,50.0,50.0,50.0,50.0,50.0,50.0,50.0,50.0,50.0,4.450916401469952,-22.615391584594644,-22.04629991718289,0.0,0.0,0.0,0.0,0.0,0.0,0.0,0.0,0.0,0.0
0.167,50.373890384098175,48.1002389882447,48.14804440243881,50.0,50.0,50.0,50.0,50.0,50.0,50.0,50.0,50.0,50.0,4.477729150876397,-22.751628883297023,-22.17910895282857,0.0,0.0,0.0,0.0,0.0,0.0,0.0,0.0,0.0,0.0
0.168,50.37838151962376,48.077419240712054,48.12579888896816,50.0,50.0,50.0,50.0,50.0,50.0,50.0,50.0,50.0,50.0,4.504541900282843,-22.887866181999403,-22.31191798847425,0.0,0.0,0.0,0.0,0.0,0.0,0.0,0.0,0.0,0.0
0.169,50.382899467898746,48.0544632558807,48.103420566461864,50.0,50.0,50.0,50.0,50.0,50.0,50.0,50.0,50.0,50.0,4.531354649689288,-23.024103480701775,-22.444727024119928,0.0,0.0,0.0,0.0,0.0,0.0,0.0,0.0,0.0,0.0
0.17,50.38744422892314,48.031371033750645,48.080909434919924,50.0,50.0,50.0,50.0,50.0,50.0,50.0,50.0,50.0,50.0,4.558167399095733,-23.160340779404155,-22.57753605976561,0.0,0.0,0.0,0.0,0.0,0.0,0.0,0.0,0.0,0.0
0.171,50.39201580269694,48.008142574321894,48.058265494342336,50.0,50.0,50.0,50.0,50.0,50.0,50.0,50.0,50.0,50.0,4.584980148502179,-23.29657807810653,-22.710345095411288,0.0,0.0,0.0,0.0,0.0,0.0,0.0,0.0,0.0,0.0
0.172,50.39661418922014,47.98477787759443,48.0354887447291,50.0,50.0,50.0,50.0,50.0,50.0,50.0,50.0,50.0,50.0,4.611792897908624,-23.432815376808907,-22.843154131056966,0.0,0.0,0.0,0.0,0.0,0.0,0.0,0.0,0.0,0.0
0.173,50.40123938849275,47.96127694356827,48.01257918608022,50.0,50.0,50.0,50.0,50.0,50.0,50.0,50.0,50.0,50.0,4.638605647315069,-23.569052675511283,-22.97596316670265,0.0,0.0,0.0,0.0,0.0,0.0,0.0,0.0,0.0,0.0
0.174,50.40589140051477,47.93763977224341,47.98953681839569,50.0,50.0,50.0,50.0,50.0,50.0,50.0,50.0,50.0,50.0,4.665418396721515,-23.705289974213663,-23.10877220234833,0.0,0.0,0.0,0.0,0.0,0.0,0.0,0.0,0.0,0.0
0.175,50.4105702252862,47.91386636361985,47.966361641675526,50.0,50.0,50.0,50.0,50.0,50.0,50.0,50.0,50.0,50.0,4.69223114612796,-23.841527272916036,-23.241581237994005,0.0,0.0,0.0,0.0,0.0,0.0,0.0,0.0,0.0,0.0
0.176,50.41527586280703,47.88995671769758,47.943053655919705,50.0,50.0,50.0,50.0,50.0,50.0,50.0,50.0,50.0,50.0,4.719043895534406,-23.977764571618415,-23.374390273639687,0.0,0.0,0.0,0.0,0.0,0.0,0.0,0.0,0.0,0.0
0.177,50.42000831307727,47.86591083447661,47.91961286112824,50.0,50.0,50.0,50.0,50.0,50.0,50.0,50.0,50.0,50.0,4.745856644940852,-24.114001870320795,-23.50719930928537,0.0,0.0,0.0,0.0,0.0,0.0,0.0,0.0,0.0,0.0
0.178,50.42476757609691,47.84172871395694,47.89603925730113,50.0,50.0,50.0,50.0,50.0,50.0,50.0,50.0,50.0,50.0,4.7726693943472975,-24.25023916902317,-23.640008344931047,0.0,0.0,0.0,0.0,0.0,0.0,0.0,0.0,0.0,0.0
0.179,50.42955365186596,47.81741035613856,47.87233284443838,50.0,50.0,50.0,50.0,50.0,50.0,50.0,50.0,50.0,50.0,4.7994821437537425,-24.38647646772555,-23.77281738057673,0.0,0.0,0.0,0.0,0.0,0.0,0.0,0.0,0.0,0.0
0.18,50.43436654038441,47.79295576102148,47.848493622539976,50.0,50.0,50.0,50.0,50.0,50.0,50.0,50.0,50.0,50.0,4.8262948931601874,-24.522713766427923,-23.905626416222407,0.0,0.0,0.0,0.0,0.0,0.0,0.0,0.0,0.0,0.0
0.181,50.43920624165228,47.768364928605706,47.82452159160594,50.0,50.0,50.0,50.0,50.0,50.0,50.0,50.0,50.0,50.0,4.853107642566633,-24.658951065130303,-24.038435451868086,0.0,0.0,0.0,0.0,0.0,0.0,0.0,0.0,0.0,0.0
0.182,50.44407275566955,47.743637858891226,47.80041675163625,50.0,50.0,50.0,50.0,50.0,50.0,50.0,50.0,50.0,50.0,4.879920391973079,-24.795188363832683,-24.171244487513768,0.0,0.0,0.0,0.0,0.0,0.0,0.0,0.0,0.0,0.0
0.183,50.44896608243622,47.718774551878035,47.776179102630906,50.0,50.0,50.0,50.0,50.0,50.0,50.0,50.0,50.0,50.0,4.906733141379525,-24.93142566253506,-24.30405352315945,0.0,0.0,0.0,0.0,0.0,0.0,0.0,0.0,0.0,0.0
0.184,50.45388622195231,47.69377500756616,47.75180864458993,50.0,50.0,50.0,50.0,50.0,50.0,50.0,50.0,50.0,50.0,4.93354589078597,-25.067662961237435,-24.436862558805124,0.0,0.0,0.0,0.0,0.0,0.0,0.0,0.0,0.0,0.0
0.185,50.4588331742178,47.668639225955566,47.727305377513304,50.0,50.0,50.0,50.0,50.0,50.0,50.0,50.0,50.0,50.0,4.960358640192416,-25.20390025993981,-24.569671594450806,0.0,0.0,0.0,0.0,0.0,0.0,0.0,0.0,0.0,0.0
0.186,50.4638069392327,47.643367207046275,47.70266930140102,50.0,50.0,50.0,50.0,50.0,50.0,50.0,50.0,50.0,50.0,4.987171389598861,-25.34013755864219,-24.70248063009649,0.0,0.0,0.0,0.0,0.0,0.0,0.0,0.0,0.0,0.0
0.187,50.46880751699699,47.61795895083828,47.6779004162531,50.0,50.0,50.0,50.0,50.0,50.0,50.0,50.0,50.0,50.0,5.013984139005307,-25.47637485734457,-24.83528966574217,0.0,0.0,0.0,0.0,0.0,0.0,0.0,0.0,0.0,0.0
0.188,50.47383490751071,47.592414457331586,47.65299872206954,50.0,50.0,50.0,50.0,50.0,50.0,50.0,50.0,50.0,50.0,5.040796888411752,-25.612612156046946,-24.968098701387852,0.0,0.0,0.0,0.0,0.0,0.0,0.0,0.0,0.0,0.0
0.189,50.47888911077382,47.56673372652619,47.62796421885033,50.0,50.0,50.0,50.0,50.0,50.0,50.0,50.0,50.0,50.0,5.067609637818197,-25.748849454749323,-25.100907737033527,0.0,0.0,0.0,0.0,0.0,0.0,0.0,0.0,0.0,0.0
0.19,50.48397012678634,47.54091675842209,47.60279690659548,50.0,50.0,50.0,50.0,50.0,50.0,50.0,50.0,50.0,50.0,5.094422387224643,-25.8850867534517,-25.23371677267921,0.0,0.0,0.0,0.0,0.0,0.0,0.0,0.0,0.0,0.0
0.191,50.48907795554827,47.514963553019285,47.57749678530497,50.0,50.0,50.0,50.0,50.0,50.0,50.0,50.0,50.0,50.0,5.121235136631089,-26.02132405215408,-25.36652580832489,0.0,0.0,0.0,0.0,0.0,0.0,0.0,0.0,0.0,0.0
0.192,50.4942125970596,47.48887411031778,47.552063854978826,50.0,50.0,50.0,50.0,50.0,50.0,50.0,50.0,50.0,50.0,5.148047886037534,-26.157561350856458,-25.49933484397057,0.0,0.0,0.0,0.0,0.0,0.0,0.0,0.0,0.0,0.0
0.193,50.49937405132034,47.46264843031757,47.52649811561703,50.0,50.0,50.0,50.0,50.0,50.0,50.0,50.0,50.0,50.0,5.17486063544398,-26.293798649558834,-25.63214387961625,0.0,0.0,0.0,0.0,0.0,0.0,0.0,0.0,0.0,0.0
0.194,50.50456231833049,47.436286513018665,47.500799567219595,50.0,50.0,50.0,50.0,50.0,50.0,50.0,50.0,50.0,50.0,5.201673384850425,-26.43003594826121,-25.76495291526193,0.0,0.0,0.0,0.0,0.0,0.0,0.0,0.0,0.0,0.0
0.195,50.509777398090044,47.40978835842105,47.47496820978651,50.0,50.0,50.0,50.0,50.0,50.0,50.0,50.0,50.0,50.0,5.228486134256871,-26.566273246963586,-25.897761950907608,0.0,0.0,0.0,0.0,0.0,0.0,0.0,0.0,0.0,0.0
0.196,50.51501929059901,47.38315396652474,47.44900404331778,50.0,50.0,50.0,50.0,50.0,50.0,50.0,50.0,50.0,50.0,5.2552988836633165,-26.702510545665966,-26.03057098655329,0.0,0.0,0.0,0.0,0.0,0.0,0.0,0.0,0.0,0.0
0.197,50.52028799585737,47.35638333732972,47.422907067813405,50.0,50.0,50.0,50.0,50.0,50.0,50.0,50.0,50.0,50.0,5.282111633069762,-26.838747844368346,-26.16338002219897,0.0,0.0,0.0,0.0,0.0,0.0,0.0,0.0,0.0,0.0
0.198,50.52558351386514,47.329476470836,47.39667728327338,50.0,50.0,50.0,50.0,50.0,50.0,50.0,50.0,50.0,50.0,5.308924382476207,-26.97498514307072,-26.296189057844654,0.0,0.0,0.0,0.0,0.0,0.0,0.0,0.0,0.0,0.0
0.199,50.530905844622325,47.30243336704358,47.37031468969771,50.0,50.0,50.0,50.0,50.0,50.0,50.0,50.0,50.0,50.0,5.335737131882652,-27.111222441773098,-26.42899809349033,0.0,0.0,0.0,0.0,0.0,0.0,0.0,0.0,0.0,0.0
0.2,50.53625498812891,47.27525402595246,47.3438192870864,50.0,50.0,50.0,50.0,50.0,50.0,50.0,50.0,50.0,50.0,5.362549881289098,-27.247459740475474,-26.56180712913601,0.0,0.0,0.0,0.0,0.0,0.0,0.0,0.0,0.0,0.0
0.201,50.5416309443849,47.247938447562625,47.31719107543944,50.0,50.0,50.0,50.0,50.0,50.0,50.0,50.0,50.0,50.0,5.389362630695544,-27.383697039177854,-26.694616164781692,0.0,0.0,0.0,0.0,0.0,0.0,0.0,0.0,0.0,0.0
0.202,50.547033713390306,47.2204866318741,47.29043005475684,50.0,50.0,50.0,50.0,50.0,50.0,50.0,50.0,50.0,50.0,5.41617538010199,-27.519934337880233,-26.827425200427374,0.0,0.0,0.0,0.0,0.0,0.0,0.0,0.0,0.0,0.0
0.203,50.5524632951451,47.19289857888686,47.263536225038585,50.0,50.0,50.0,50.0,50.0,50.0,50.0,50.0,50.0,50.0,5.442988129508436,-27.65617163658261,-26.960234236073052,0.0,0.0,0.0,0.0,0.0,0.0,0.0,0.0,0.0,0.0
0.204,50.55791968964932,47.16517428860094,47.23650958628469,50.0,50.0,50.0,50.0,50.0,50.0,50.0,50.0,50.0,50.0,5.469800878914879,-27.792408935284982,-27.093043271718727,0.0,0.0,0.0,0.0,0.0,0.0,0.0,0.0,0.0,0.0
0.205,50.563402896902936,47.137313761016294,47.20935013849515,50.0,50.0,50.0,50.0,50.0,50.0,50.0,50.0,50.0,50.0,5.496613628321325,-27.928646233987358,-27.225852307364406,0.0,0.0,0.0,0.0,0.0,0.0,0.0,0.0,0.0,0.0
0.206,50.56891291690596,47.109316996132954,47.182057881669955,50.0,50.0,50.0,50.0,50.0,50.0,50.0,50.0,50.0,50.0,5.523426377727771,-28.064883532689738,-27.358661343010088,0.0,0.0,0.0,0.0,0.0,0.0,0.0,0.0,0.0,0.0
0.207,50.57444974965839,47.081183993950916,47.15463281580913,50.0,50.0,50.0,50.0,50.0,50.0,50.0,50.0,50.0,50.0,5.550239127134216,-28.201120831392114,-27.49147037865577,0.0,0.0,0.0,0.0,0.0,0.0,0.0,0.0,0.0,0.0
0.208,50.58001339516023,47.05291475447017,47.12707494091265,50.0,50.0,50.0,50.0,50.0,50.0,50.0,50.0,50.0,50.0,5.577051876540662,-28.337358130094493,-27.62427941430145,0.0,0.0,0.0,0.0,0.0,0.0,0.0,0.0,0.0,0.0
0.209,50.58560385341147,47.02450927769072,47.09938425698052,50.0,50.0,50.0,50.0,50.0,50.0,50.0,50.0,50.0,50.0,5.603864625947107,-28.47359542879687,-27.757088449947126,0.0,0.0,0.0,0.0,0.0,0.0,0.0,0.0,0.0,0.0
0.21,50.59122112441212,46.99596756361258,47.07156076401276,50.0,50.0,50.0,50.0,50.0,50.0,50.0,50.0,50.0,50.0,5.630677375353552,-28.609832727499246,-27.889897485592808,0.0,0.0,0.0,0.0,0.0,0.0,0.0,0.0,0.0,0.0
0.211,50.59686520816218,46.967289612235724,47.04360446200934,50.0,50.0,50.0,50.0,50.0,50.0,50.0,50.0,50.0,50.0,5.657490124759998,-28.746070026201625,-28.02270652123849,0.0,0.0,0.0,0.0,0.0,0.0,0.0,0.0,0.0,0.0
0.212,50.60253610466164,46.93847542356017,47.015515350970276,50.0,50.0,50.0,50.0,50.0,50.0,50.0,50.0,50.0,50.0,5.684302874166444,-28.882307324904,-28.15551555688417,0.0,0.0,0.0,0.0,0.0,0.0,0.0,0.0,0.0,0.0
0.213,50.60823381391051,46.90952499758592,46.98729343089557,50.0,50.0,50.0,50.0,50.0,50.0,50.0,50.0,50.0,50.0,5.71111562357289,-29.01854462360638,-28.28832459252985,0.0,0.0,0.0,0.0,0.0,0.0,0.0,0.0,0.0,0.0
0.214,50.61395833590879,46.88043833431296,46.95893870178522,50.0,50.0,50.0,50.0,50.0,50.0,50.0,50.0,50.0,50.0,5.737928372979335,-29.154781922308757,-28.42113362817553,0.0,0.0,0.0,0.0,0.0,0.0,0.0,0.0,0.0,0.0
0.215,50.619709670656476,46.8512154337413,46.93045116363922,50.0,50.0,50.0,50.0,50.0,50.0,50.0,50.0,50.0,50.0,5.7647411223857805,-29.291019221011133,-28.55394266382121,0.0,0.0,0.0,0.0,0.0,0.0,0.0,0.0,0.0,0.0
0.216,50.62548781815356,46.821856295870944,46.901830816457576,50.0,50.0,50.0,50.0,50.0,50.0,50.0,50.0,50.0,50.0,5.7915538717922255,-29.427256519713513,-28.68675169946689,0.0,0.0,0.0,0.0,0.0,0.0,0.0,0.0,0.0,0.0
0.217,50.63129277840006,46.792360920701874,46.873077660240284,50.0,50.0,50.0,50.0,50.0,50.0,50.0,50.0,50.0,50.0,5.818366621198671,-29.56349381841589,-28.81956073511257,0.0,0.0,0.0,0.0,0.0,0.0,0.0,0.0,0.0,0.0
0.218,50.637124551395964,46.762729308234114,46.84419169498736,50.0,50.0,50.0,50.0,50.0,50.0,50.0,50.0,50.0,50.0,5.845179370605117,-29.69973111711827,-28.952369770758253,0.0,0.0,0.0,0.0,0.0,0.0,0.0,0.0,0.0,0.0
0.219,50.642983137141265,46.73296145846764,46.81517292069877,50.0,50.0,50.0,50.0,50.0,50.0,50.0,50.0,50.0,50.0,5.871992120011562,-29.835968415820645,-29.085178806403928,0.0,0.0,0.0,0.0,0.0,0.0,0.0,0.0,0.0,0.0
0.22,50.64886853563598,46.703057371402465,46.78602133737454,50.0,50.0,50.0,50.0,50.0,50.0,50.0,50.0,50.0,50.0,5.898804869418008,-29.97220571452302,-29.21798784204961,0.0,0.0,0.0,0.0,0.0,0.0,0.0,0.0,0.0,0.0
0.221,50.6547807468801,46.67301704703859,46.756736945014666,50.0,50.0,50.0,50.0,50.0,50.0,50.0,50.0,50.0,50.0,5.925617618824454,-30.1084430132254,-29.35079687769529,0.0,0.0,0.0,0.0,0.0,0.0,0.0,0.0,0.0,0.0
0.222,50.660719770873634,46.64284048537602,46.727319743619155,50.0,50.0,50.0,50.0,50.0,50.0,50.0,50.0,50.0,50.0,5.952430368230899,-30.244680311927777,-29.483605913340973,0.0,0.0,0.0,0.0,0.0,0.0,0.0,0.0,0.0,0.0
0.223,50.66668560761656,46.61252768641474,46.69776973318798,50.0,50.0,50.0,50.0,50.0,50.0,50.0,50.0,50.0,50.0,5.979243117637344,-30.380917610630153,-29.616414948986648,0.0,0.0,0.0,0.0,0.0,0.0,0.0,0.0,0.0,0.0
0.224,50.672678257108906,46.582078650154756,46.66808691372118,50.0,50.0,50.0,50.0,50.0,50.0,50.0,50.0,50.0,50.0,6.00605586704379,-30.517154909332532,-29.74922398463233,0.0,0.0,0.0,0.0,0.0,0.0,0.0,0.0,0.0,0.0
0.225,50.67869771935065,46.55149337659607,46.63827128521872,50.0,50.0,50.0,50.0,50.0,50.0,50.0,50.0,50.0,50.0,6.032868616450235,-30.65339220803491,-29.882033020278012,0.0,0.0,0.0,0.0,0.0,0.0,0.0,0.0,0.0,0.0
0.226,50.6847439943418,46.52077186573868,46.60832284768062,50.0,50.0,50.0,50.0,50.0,50.0,50.0,50.0,50.0,50.0,6.059681365856681,-30.78962950673729,-30.01484205592369,0.0,0.0,0.0,0.0,0.0,0.0,0.0,0.0,0.0,0.0
0.227,50.69081708208237,46.4899141175826,46.57824160110688,50.0,50.0,50.0,50.0,50.0,50.0,50.0,50.0,50.0,50.0,6.086494115263127,-30.925866805439664,-30.147651091569372,0.0,0.0,0.0,0.0,0.0,0.0,0.0,0.0,0.0,0.0
0.228,50.69691698257233,46.45892013212781,46.54802754549749,50.0,50.0,50.0,50.0,50.0,50.0,50.0,50.0,50.0,50.0,6.113306864669571,-31.06210410414204,-30.28046012721505,0.0,0.0,0.0,0.0,0.0,0.0,0.0,0.0,0.0,0.0
0.229,50.7030436958117,46.42778990937431,46.51768068085244,50.0,50.0,50.0,50.0,50.0,50.0,50.0,50.0,50.0,50.0,6.140119614076017,-31.19834140284442,-30.413269162860733,0.0,0.0,0.0,0.0,0.0,0.0,0.0,0.0,0.0,0.0
0.23,50.70919722180048,46.39652344932212,46.48720100717176,50.0,50.0,50.0,50.0,50.0,50.0,50.0,50.0,50.0,50.0,6.166932363482463,-31.334578701546796,-30.54607819850641,0.0,0.0,0.0,0.0,0.0,0.0,0.0,0.0,0.0,0.0
0.231,50.71537756053867,46.365120751971226,46.45658852445544,50.0,50.0,50.0,50.0,50.0,50.0,50.0,50.0,50.0,50.0,6.193745112888909,-31.470816000249176,-30.678887234152093,0.0,0.0,0.0,0.0,0.0,0.0,0.0,0.0,0.0,0.0
0.232,50.721584712026264,46.33358181732162,46.42584323270346,50.0,50.0,50.0,50.0,50.0,50.0,50.0,50.0,50.0,50.0,6.220557862295355,-31.607053298951552,-30.811696269797775,0.0,0.0,0.0,0.0,0.0,0.0,0.0,0.0,0.0,0.0
0.233,50.727818676263254,46.301906645373315,46.39496513191583,50.0,50.0,50.0,50.0,50.0,50.0,50.0,50.0,50.0,50.0,6.2473706117017995,-31.743290597653928,-30.94450530544345,0.0,0.0,0.0,0.0,0.0,0.0,0.0,0.0,0.0,0.0
0.234,50.73407945324966,46.27009523612631,46.363954222092566,50.0,50.0,50.0,50.0,50.0,50.0,50.0,50.0,50.0,50.0,6.2741833611082445,-31.879527896356308,-31.07731434108913,0.0,0.0,0.0,0.0,0.0,0.0,0.0,0.0,0.0,0.0
0.235,50.740367042985476,46.238147589580606,46.33281050323366,50.0,50.0,50.0,50.0,50.0,50.0,50.0,50.0,50.0,50.0,6.300996110514689,-32.01576519505868,-31.21012337673481,0.0,0.0,0.0,0.0,0.0,0.0,0.0,0.0,0.0,0.0
0.236,50.74668144547069,46.2060637057362,46.301533975339105,50.0,50.0,50.0,50.0,50.0,50.0,50.0,50.0,50.0,50.0,6.327808859921135,-32.15200249376106,-31.342932412380488,0.0,0.0,0.0,0.0,0.0,0.0,0.0,0.0,0.0,0.0
0.237,50.75302266070531,46.17384358459308,46.270124638408895,50.0,50.0,50.0,50.0,50.0,50.0,50.0,50.0,50.0,50.0,6.354621609327581,-32.288239792463436,-31.47574144802617,0.0,0.0,0.0,0.0,0.0,0.0,0.0,0.0,0.0,0.0
0.238,50.75939068868935,46.14148722615127,46.23858249244305,50.0,50.0,50.0,50.0,50.0,50.0,50.0,50.0,50.0,50.0,6.381434358734026,-32.42447709116581,-31.60855048367185,0.0,0.0,0.0,0.0,0.0,0.0,0.0,0.0,0.0,0.0
0.239,50.765785529422786,46.10899463041075,46.20690753744155,50.0,50.0,50.0,50.0,50.0,50.0,50.0,50.0,50.0,50.0,6.408247108140472,-32.56071438986819,-31.74135951931753,0.0,0.0,0.0,0.0,0.0,0.0,0.0,0.0,0.0,0.0
0.24,50.772207182905625,46.07636579737153,46.17509977340441,50.0,50.0,50.0,50.0,50.0,50.0,50.0,50.0,50.0,50.0,6.435059857546917,-32.696951688570564,-31.87416855496321,0.0,0.0,0.0,0.0,0.0,0.0,0.0,0.0,0.0,0.0
0.241,50.77865564913788,46.04360072703361,46.14315920033163,50.0,50.0,50.0,50.0,50.0,50.0,50.0,50.0,50.0,50.0,6.461872606953363,-32.83318898727295,-32.00697759060889,0.0,0.0,0.0,0.0,0.0,0.0,0.0,0.0,0.0,0.0
0.242,50.78513092811954,46.01069941939699,46.1110858182232,50.0,50.0,50.0,50.0,50.0,50.0,50.0,50.0,50.0,50.0,6.488685356359809,-32.969426285975324,-32.13978662625457,0.0,0.0,0.0,0.0,0.0,0.0,0.0,0.0,0.0,0.0
0.243,50.7916330198506,45.97766187446166,46.07887962707912,50.0,50.0,50.0,50.0,50.0,50.0,50.0,50.0,50.0,50.0,6.5154981057662535,-33.1056635846777,-32.27259566190025,0.0,0.0,0.0,0.0,0.0,0.0,0.0,0.0,0.0,0.0
0.244,50.79816192433107,45.94448809222763,46.04654062689939,50.0,50.0,50.0,50.0,50.0,50.0,50.0,50.0,50.0,50.0,6.542310855172699,-33.241900883380076,-32.40540469754593,0.0,0.0,0.0,0.0,0.0,0.0,0.0,0.0,0.0,0.0
0.245,50.80471764156095,45.9111780726949,46.01406881768403,50.0,50.0,50.0,50.0,50.0,50.0,50.0,50.0,50.0,50.0,6.569123604579145,-33.37813818208245,-32.53821373319161,0.0,0.0,0.0,0.0,0.0,0.0,0.0,0.0,0.0,0.0
0.246,50.81130017154023,45.87773181586347,45.98146419943301,50.0,50.0,50.0,50.0,50.0,50.0,50.0,50.0,50.0,50.0,6.59593635398559,-33.514375480784835,-32.67102276883729,0.0,0.0,0.0,0.0,0.0,0.0,0.0,0.0,0.0,0.0
0.247,50.81790951426891,45.844149321733326,45.94872677214635,50.0,50.0,50.0,50.0,50.0,50.0,50.0,50.0,50.0,50.0,6.622749103392036,-33.65061277948721,-32.803831804482975,0.0,0.0,0.0,0.0,0.0,0.0,0.0,0.0,0.0,0.0
0.248,50.82454566974701,45.81043059030449,45.91585653582405,50.0,50.0,50.0,50.0,50.0,50.0,50.0,50.0,50.0,50.0,6.649561852798481,-33.78685007818959,-32.936640840128646,0.0,0.0,0.0,0.0,0.0,0.0,0.0,0.0,0.0,0.0
0.249,50.83120863797451,45.77657562157695,45.8828534904661,50.0,50.0,50.0,50.0,50.0,50.0,50.0,50.0,50.0,50.0,6.676374602204927,-33.923087376891964,-33.06944987577433,0.0,0.0,0.0,0.0,0.0,0.0,0.0,0.0,0.0,0.0
0.25,50.837898418951426,45.74258441555071,45.849717636072505,50.0,50.0,50.0,50.0,50.0,50.0,50.0,50.0,50.0,50.0,6.703187351611373,-34.05932467559434,-33.20225891142001,0.0,0.0,0.0,0.0,0.0,0.0,0.0,0.0,0.0,0.0
0.251,50.844615012677735,45.70845697222576,45.81644897264326,50.0,50.0,50.0,50.0,50.0,50.0,50.0,50.0,50.0,50.0,6.7300001010178185,-34.19556197429672,-33.335067947065696,0.0,0.0,0.0,0.0,0.0,0.0,0.0,0.0,0.0,0.0
0.252,50.851358419153456,45.674193291602116,45.78304750017837,50.0,50.0,50.0,50.0,50.0,50.0,50.0,50.0,50.0,50.0,6.7568128504242635,-34.3317992729991,-33.467876982711374,0.0,0.0,0.0,0.0,0.0,0.0,0.0,0.0,0.0,0.0
0.253,50.85812863837859,45.639793373679765,45.74951321867783,50.0,50.0,50.0,50.0,50.0,50.0,50.0,50.0,50.0,50.0,6.7836255998307085,-34.468036571701475,-33.60068601835705,0.0,0.0,0.0,0.0,0.0,0.0,0.0,0.0,0.0,0.0
0.254,50.86492567035312,45.6052572184587,45.71584612814165,50.0,50.0,50.0,50.0,50.0,50.0,50.0,50.0,50.0,50.0,6.810438349237154,-34.60427387040385,-33.73349505400273,0.0,0.0,0.0,0.0,0.0,0.0,0.0,0.0,0.0,0.0
0.255,50.87174951507706,45.57058482593896,45.68204622856983,50.0,50.0,50.0,50.0,50.0,50.0,50.0,50.0,50.0,50.0,6.8372510986436,-34.74051116910623,-33.866304089648416,0.0,0.0,0.0,0.0,0.0,0.0,0.0,0.0,0.0,0.0
0.256,50.87860017255041,45.535776196120494,45.64811351996236,50.0,50.0,50.0,50.0,50.0,50.0,50.0,50.0,50.0,50.0,6.864063848050046,-34.87674846780861,-33.999113125294095,0.0,0.0,0.0,0.0,0.0,0.0,0.0,0.0,0.0,0.0
0.257,50.88547764277316,45.50083132900334,45.614048002319244,50.0,50.0,50.0,50.0,50.0,50.0,50.0,50.0,50.0,50.0,6.890876597456492,-35.01298576651099,-34.13192216093977,0.0,0.0,0.0,0.0,0.0,0.0,0.0,0.0,0.0,0.0
0.258,50.892381925745326,45.46575022458748,45.57984967564048,50.0,50.0,50.0,50.0,50.0,50.0,50.0,50.0,50.0,50.0,6.917689346862936,-35.14922306521336,-34.26473119658545,0.0,0.0,0.0,0.0,0.0,0.0,0.0,0.0,0.0,0.0
0.259,50.89931302146689,45.43053288287292,45.54551853992607,50.0,50.0,50.0,50.0,50.0,50.0,50.0,50.0,50.0,50.0,6.944502096269382,-35.28546036391574,-34.39754023223113,0.0,0.0,0.0,0.0,0.0,0.0,0.0,0.0,0.0,0.0
0.26,50.90627092993786,45.39517930385965,45.51105459517602,50.0,50.0,50.0,50.0,50.0,50.0,50.0,50.0,50.0,50.0,6.971314845675828,-35.421697662618115,-34.530349267876815,0.0,0.0,0.0,0.0,0.0,0.0,0.0,0.0,0.0,0.0
0.261,50.91325565115823,45.35968948754767,45.476457841390314,50.0,50.0,50.0,50.0,50.0,50.0,50.0,50.0,50.0,50.0,6.9981275950822734,-35.5579349613205,-34.66315830352249,0.0,0.0,0.0,0.0,0.0,0.0,0.0,0.0,0.0,0.0
0.262,50.920267185128026,45.324063433937006,45.441728278568974,50.0,50.0,50.0,50.0,50.0,50.0,50.0,50.0,50.0,50.0,7.024940344488719,-35.694172260022874,-34.79596733916818,0.0,0.0,0.0,0.0,0.0,0.0,0.0,0.0,0.0,0.0
0.263,50.92730553184721,45.28830114302763,45.40686590671198,50.0,50.0,50.0,50.0,50.0,50.0,50.0,50.0,50.0,50.0,7.051753093895164,-35.83040955872525,-34.92877637481385,0.0,0.0,0.0,0.0,0.0,0.0,0.0,0.0,0.0,0.0
0.264,50.93437069131581,45.25240261481955,45.37187072581934,50.0,50.0,50.0,50.0,50.0,50.0,50.0,50.0,50.0,50.0,7.078565843301609,-35.96664685742763,-35.061585410459536,0.0,0.0,0.0,0.0,0.0,0.0,0.0,0.0,0.0,0.0
0.265,50.94146266353382,45.216367849312775,45.336742735891065,50.0,50.0,50.0,50.0,50.0,50.0,50.0,50.0,50.0,50.0,7.105378592708055,-36.10288415613,-35.194394446105214,0.0,0.0,0.0,0.0,0.0,0.0,0.0,0.0,0.0,0.0
0.266,50.94858144850122,45.180196846507286,45.301481936927125,50.0,50.0,50.0,50.0,50.0,50.0,50.0,50.0,50.0,50.0,7.132191342114501,-36.239121454832386,-35.32720348175089,0.0,0.0,0.0,0.0,0.0,0.0,0.0,0.0,0.0,0.0
0.267,50.955727046218044,45.14388960640311,45.26608832892755,50.0,50.0,50.0,50.0,50.0,50.0,50.0,50.0,50.0,50.0,7.159004091520946,-36.37535875353476,-35.46001251739657,0.0,0.0,0.0,0.0,0.0,0.0,0.0,0.0,0.0,0.0
0.268,50.96289945668427,45.10744612900022,45.23056191189234,50.0,50.0,50.0,50.0,50.0,50.0,50.0,50.0,50.0,50.0,7.185816840927392,-36.51159605223714,-35.592821553042256,0.0,0.0,0.0,0.0,0.0,0.0,0.0,0.0,0.0,0.0
0.269,50.9700986798999,45.070866414298635,45.19490268582147,50.0,50.0,50.0,50.0,50.0,50.0,50.0,50.0,50.0,50.0,7.2126295903338375,-36.647833350939514,-35.725630588687935,0.0,0.0,0.0,0.0,0.0,0.0,0.0,0.0,0.0,0.0
0.27,50.97732471586494,45.03415046229834,45.159110650714965,50.0,50.0,50.0,50.0,50.0,50.0,50.0,50.0,50.0,50.0,7.2394423397402825,-36.78407064964189,-35.85843962433361,0.0,0.0,0.0,0.0,0.0,0.0,0.0,0.0,0.0,0.0
0.271,50.98457756457938,44.99729827299935,45.123185806572806,50.0,50.0,50.0,50.0,50.0,50.0,50.0,50.0,50.0,50.0,7.266255089146728,-36.92030794834427,-35.9912486599793,0.0,0.0,0.0,0.0,0.0,0.0,0.0,0.0,0.0,0.0
0.272,50.99185722604323,44.96030984640165,45.087128153395,50.0,50.0,50.0,50.0,50.0,50.0,50.0,50.0,50.0,50.0,7.293067838553173,-37.05654524704665,-36.12405769562498,0.0,0.0,0.0,0.0,0.0,0.0,0.0,0.0,0.0,0.0
0.273,50.99916370025649,44.923185182505264,45.05093769118156,50.0,50.0,50.0,50.0,50.0,50.0,50.0,50.0,50.0,50.0,7.319880587959619,-37.192782545749026,-36.256866731270655,0.0,0.0,0.0,0.0,0.0,0.0,0.0,0.0,0.0,0.0
0.274,51.00649698721915,44.88592428131016,45.014614419932464,50.0,50.0,50.0,50.0,50.0,50.0,50.0,50.0,50.0,50.0,7.346693337366065,-37.3290198444514,-36.38967576691633,0.0,0.0,0.0,0.0,0.0,0.0,0.0,0.0,0.0,0.0
0.275,51.01385708693122,44.84852714281635,44.97815833964772,50.0,50.0,50.0,50.0,50.0,50.0,50.0,50.0,50.0,50.0,7.373506086772511,-37.46525714315378,-36.52248480256202,0.0,0.0,0.0,0.0,0.0,0.0,0.0,0.0,0.0,0.0
0.276,51.021243999392695,44.810993767023845,44.941569450327336,50.0,50.0,50.0,50.0,50.0,50.0,50.0,50.0,50.0,50.0,7.400318836178956,-37.60149444185616,-36.6552938382077,0.0,0.0,0.0,0.0,0.0,0.0,0.0,0.0,0.0,0.0
0.277,51.028657724603576,44.77332415393264,44.9048477519713,50.0,50.0,50.0,50.0,50.0,50.0,50.0,50.0,50.0,50.0,7.427131585585401,-37.73773174055854,-36.788102873853376,0.0,0.0,0.0,0.0,0.0,0.0,0.0,0.0,0.0,0.0
0.278,51.03609826256387,44.73551830354273,44.86799324457963,50.0,50.0,50.0,50.0,50.0,50.0,50.0,50.0,50.0,50.0,7.453944334991847,-37.87396903926091,-36.920911909499054,0.0,0.0,0.0,0.0,0.0,0.0,0.0,0.0,0.0,0.0
0.279,51.043565613273564,44.69757621585412,44.83100592815231,50.0,50.0,50.0,50.0,50.0,50.0,50.0,50.0,50.0,50.0,7.4807570843982925,-38.01020633796329,-37.05372094514474,0.0,0.0,0.0,0.0,0.0,0.0,0.0,0.0,0.0,0.0
0.28,51.05105977673267,44.65949789086681,44.793885802689346,50.0,50.0,50.0,50.0,50.0,50.0,50.0,50.0,50.0,50.0,7.507569833804738,-38.146443636665666,-37.18652998079042,0.0,0.0,0.0,0.0,0.0,0.0,0.0,0.0,0.0,0.0
0.281,51.05858075294117,44.62128332858079,44.75663286819072,50.0,50.0,50.0,50.0,50.0,50.0,50.0,50.0,50.0,50.0,7.534382583211184,-38.28268093536805,-37.319339016436096,0.0,0.0,0.0,0.0,0.0,0.0,0.0,0.0,0.0,0.0
0.282,51.06612854189909,44.582932528996075,44.719247124656476,50.0,50.0,50.0,50.0,50.0,50.0,50.0,50.0,50.0,50.0,7.561195332617628,-38.41891823407042,-37.452148052081775,0.0,0.0,0.0,0.0,0.0,0.0,0.0,0.0,0.0,0.0
0.283,51.07370314360641,44.54444549211265,44.68172857208656,50.0,50.0,50.0,50.0,50.0,50.0,50.0,50.0,50.0,50.0,7.588008082024072,-38.555155532772794,-37.584957087727446,0.0,0.0,0.0,0.0,0.0,0.0,0.0,0.0,0.0,0.0
0.284,51.08130455806314,44.50582221793053,44.644077210481015,50.0,50.0,50.0,50.0,50.0,50.0,50.0,50.0,50.0,50.0,7.614820831430518,-38.69139283147517,-37.71776612337313,0.0,0.0,0.0,0.0,0.0,0.0,0.0,0.0,0.0,0.0
0.285,51.088932785269265,44.4670627064497,44.60629303983982,50.0,50.0,50.0,50.0,50.0,50.0,50.0,50.0,50.0,50.0,7.641633580836964,-38.827630130177546,-37.85057515901881,0.0,0.0,0.0,0.0,0.0,0.0,0.0,0.0,0.0,0.0
0.286,51.09658782522481,44.42816695767017,44.568376060162976,50.0,50.0,50.0,50.0,50.0,50.0,50.0,50.0,50.0,50.0,7.66844633024341,-38.96386742887993,-37.98338419466449,0.0,0.0,0.0,0.0,0.0,0.0,0.0,0.0,0.0,0.0
0.287,51.10426967792975,44.389134971591936,44.53032627145049,50.0,50.0,50.0,50.0,50.0,50.0,50.0,50.0,50.0,50.0,7.695259079649856,-39.100104727582305,-38.116193230310174,0.0,0.0,0.0,0.0,0.0,0.0,0.0,0.0,0.0,0.0
0.288,51.11197834338411,44.34996674821501,44.49214367370236,50.0,50.0,50.0,50.0,50.0,50.0,50.0,50.0,50.0,50.0,7.7220718290563015,-39.23634202628468,-38.24900226595585,0.0,0.0,0.0,0.0,0.0,0.0,0.0,0.0,0.0,0.0
0.289,51.119713821587865,44.31066228753937,44.45382826691858,50.0,50.0,50.0,50.0,50.0,50.0,50.0,50.0,50.0,50.0,7.7488845784627465,-39.372579324987065,-38.38181130160154,0.0,0.0,0.0,0.0,0.0,0.0,0.0,0.0,0.0,0.0
0.29,51.12747611254103,44.27122158956503,44.415380051099156,50.0,50.0,50.0,50.0,50.0,50.0,50.0,50.0,50.0,50.0,7.7756973278691905,-39.508816623689434,-38.51462033724721,0.0,0.0,0.0,0.0,0.0,0.0,0.0,0.0,0.0,0.0
0.291,51.135265216243596,44.23164465429198,44.37679902624408,50.0,50.0,50.0,50.0,50.0,50.0,50.0,50.0,50.0,50.0,7.802510077275636,-39.64505392239181,-38.64742937289289,0.0,0.0,0.0,0.0,0.0,0.0,0.0,0.0,0.0,0.0
0.292,51.143081132695585,44.191931481720246,44.33808519235337,50.0,50.0,50.0,50.0,50.0,50.0,50.0,50.0,50.0,50.0,7.829322826682082,-39.781291221094186,-38.78023840853857,0.0,0.0,0.0,0.0,0.0,0.0,0.0,0.0,0.0,0.0
0.293,51.15092386189697,44.152082071849804,44.29923854942701,50.0,50.0,50.0,50.0,50.0,50.0,50.0,50.0,50.0,50.0,7.856135576088528,-39.91752851979657,-38.91304744418425,0.0,0.0,0.0,0.0,0.0,0.0,0.0,0.0,0.0,0.0
0.294,51.15879340384777,44.11209642468066,44.260259097465,50.0,50.0,50.0,50.0,50.0,50.0,50.0,50.0,50.0,50.0,7.882948325494974,-40.053765818498945,-39.04585647982993,0.0,0.0,0.0,0.0,0.0,0.0,0.0,0.0,0.0,0.0
0.295,51.16668975854796,44.07197454021281,44.22114683646735,50.0,50.0,50.0,50.0,50.0,50.0,50.0,50.0,50.0,50.0,7.909761074901419,-40.19000311720132,-39.178665515475615,0.0,0.0,0.0,0.0,0.0,0.0,0.0,0.0,0.0,0.0
0.296,51.174612925997565,44.03171641844625,44.181901766434045,50.0,50.0,50.0,50.0,50.0,50.0,50.0,50.0,50.0,50.0,7.936573824307865,-40.326240415903705,-39.31147455112129,0.0,0.0,0.0,0.0,0.0,0.0,0.0,0.0,0.0,0.0
0.297,51.18256290619658,43.991322059381005,44.14252388736511,50.0,50.0,50.0,50.0,50.0,50.0,50.0,50.0,50.0,50.0,7.963386573714311,-40.46247771460608,-39.44428358676697,0.0,0.0,0.0,0.0,0.0,0.0,0.0,0.0,0.0,0.0
0.298,51.19053969914499,43.95079146301704,44.10301319926051,50.0,50.0,50.0,50.0,50.0,50.0,50.0,50.0,50.0,50.0,7.990199323120756,-40.59871501330846,-39.57709262241266,0.0,0.0,0.0,0.0,0.0,0.0,0.0,0.0,0.0,0.0
0.299,51.19854330484282,43.910124629354385,44.06336970212028,50.0,50.0,50.0,50.0,50.0,50.0,50.0,50.0,50.0,50.0,8.017012072527201,-40.73495231201084,-39.709901658058335,0.0,0.0,0.0,0.0,0.0,0.0,0.0,0.0,0.0,0.0
0.3,51.20657372329005,43.86932155839302,44.023593395944395,50.0,50.0,50.0,50.0,50.0,50.0,50.0,50.0,50.0,50.0,8.043824821933645,-40.87118961071321,-39.84271069370401,0.0,0.0,0.0,0.0,0.0,0.0,0.0,0.0,0.0,0.0
0.301,51.21463095448669,43.82838225013296,43.983684280732874,50.0,50.0,50.0,50.0,50.0,50.0,50.0,50.0,50.0,50.0,8.070637571340091,-41.007426909415585,-39.97551972934969,0.0,0.0,0.0,0.0,0.0,0.0,0.0,0.0,0.0,0.0
0.302,51.22271499843273,43.787306704574185,43.9436423564857,50.0,50.0,50.0,50.0,50.0,50.0,50.0,50.0,50.0,50.0,8.097450320746537,-41.14366420811796,-40.10832876499537,0.0,0.0,0.0,0.0,0.0,0.0,0.0,0.0,0.0,0.0
0.303,51.230825855128174,43.74609492171672,43.90346762320288,50.0,50.0,50.0,50.0,50.0,50.0,50.0,50.0,50.0,50.0,8.124263070152983,-41.279901506820345,-40.24113780064105,0.0,0.0,0.0,0.0,0.0,0.0,0.0,0.0,0.0,0.0
0.304,51.23896352457304,43.70474690156055,43.86316008088442,50.0,50.0,50.0,50.0,50.0,50.0,50.0,50.0,50.0,50.0,8.151075819559429,-41.41613880552272,-40.373946836286734,0.0,0.0,0.0,0.0,0.0,0.0,0.0,0.0,0.0,0.0
0.305,51.24712800676729,43.663262644105664,43.8227197295303,50.0,50.0,50.0,50.0,50.0,50.0,50.0,50.0,50.0,50.0,8.177888568965875,-41.5523761042251,-40.50675587193241,0.0,0.0,0.0,0.0,0.0,0.0,0.0,0.0,0.0,0.0
0.306,51.25531930171097,43.621642149352105,43.78214656914056,50.0,50.0,50.0,50.0,50.0,50.0,50.0,50.0,50.0,50.0,8.20470131837232,-41.68861340292748,-40.6395649075781,0.0,0.0,0.0,0.0,0.0,0.0,0.0,0.0,0.0,0.0
0.307,51.26353740940404,43.57988541729981,43.74144059971515,50.0,50.0,50.0,50.0,50.0,50.0,50.0,50.0,50.0,50.0,8.231514067778766,-41.824850701629856,-40.772373943223776,0.0,0.0,0.0,0.0,0.0,0.0,0.0,0.0,0.0,0.0
0.308,51.27178232984652,43.53799244794884,43.700601821254104,50.0,50.0,50.0,50.0,50.0,50.0,50.0,50.0,50.0,50.0,8.258326817185212,-41.96108800033223,-40.905182978869455,0.0,0.0,0.0,0.0,0.0,0.0,0.0,0.0,0.0,0.0
0.309,51.28005406303841,43.49596324129915,43.65963023375741,50.0,50.0,50.0,50.0,50.0,50.0,50.0,50.0,50.0,50.0,8.285139566591656,-42.0973252990346,-41.03799201451513,0.0,0.0,0.0,0.0,0.0,0.0,0.0,0.0,0.0,0.0
0.31,51.28835260897971,43.45379779735077,43.61852583722508,50.0,50.0,50.0,50.0,50.0,50.0,50.0,50.0,50.0,50.0,8.3119523159981,-42.233562597736984,-41.17080105016081,0.0,0.0,0.0,0.0,0.0,0.0,0.0,0.0,0.0,0.0
0.311,51.296677967670405,43.41149611610368,43.57728863165709,50.0,50.0,50.0,50.0,50.0,50.0,50.0,50.0,50.0,50.0,8.338765065404546,-42.36979989643936,-41.30361008580649,0.0,0.0,0.0,0.0,0.0,0.0,0.0,0.0,0.0,0.0
0.312,51.305030139110514,43.36905819755789,43.53591861705346,50.0,50.0,50.0,50.0,50.0,50.0,50.0,50.0,50.0,50.0,8.365577814810992,-42.50603719514174,-41.436419121452175,0.0,0.0,0.0,0.0,0.0,0.0,0.0,0.0,0.0,0.0
0.313,51.313409123300026,43.32648404171339,43.494415793414184,50.0,50.0,50.0,50.0,50.0,50.0,50.0,50.0,50.0,50.0,8.392390564217438,-42.64227449384412,-41.569228157097854,0.0,0.0,0.0,0.0,0.0,0.0,0.0,0.0,0.0,0.0
0.314,51.32181492023895,43.283773648570204,43.452780160739266,50.0,50.0,50.0,50.0,50.0,50.0,50.0,50.0,50.0,50.0,8.419203313623884,-42.778511792546496,-41.70203719274353,0.0,0.0,0.0,0.0,0.0,0.0,0.0,0.0,0.0,0.0
0.315,51.33024752992728,43.240927018128296,43.41101171902869,50.0,50.0,50.0,50.0,50.0,50.0,50.0,50.0,50.0,50.0,8.44601606303033,-42.91474909124887,-41.83484622838922,0.0,0.0,0.0,0.0,0.0,0.0,0.0,0.0,0.0,0.0
0.316,51.338706952365015,43.197944150387706,43.36911046828249,50.0,50.0,50.0,50.0,50.0,50.0,50.0,50.0,50.0,50.0,8.472828812436775,-43.050986389951255,-41.967655264034896,0.0,0.0,0.0,0.0,0.0,0.0,0.0,0.0,0.0,0.0
0.317,51.34719318755215,43.154825045348396,43.32707640850062,50.0,50.0,50.0,50.0,50.0,50.0,50.0,50.0,50.0,50.0,8.499641561843221,-43.18722368865363,-42.10046429968058,0.0,0.0,0.0,0.0,0.0,0.0,0.0,0.0,0.0,0.0
0.318,51.3557062354887,43.11156970301039,43.28490953968312,50.0,50.0,50.0,50.0,50.0,50.0,50.0,50.0,50.0,50.0,8.526454311249667,-43.32346098735601,-42.23327333532626,0.0,0.0,0.0,0.0,0.0,0.0,0.0,0.0,0.0,0.0
0.319,51.364246096174654,43.06817812337369,43.242609861829976,50.0,50.0,50.0,50.0,50.0,50.0,50.0,50.0,50.0,50.0,8.553267060656111,-43.45969828605838,-42.36608237097193,0.0,0.0,0.0,0.0,0.0,0.0,0.0,0.0,0.0,0.0
0.32,51.37281276961001,43.024650306438275,43.20017737494118,50.0,50.0,50.0,50.0,50.0,50.0,50.0,50.0,50.0,50.0,8.580079810062557,-43.59593558476076,-42.498891406617616,0.0,0.0,0.0,0.0,0.0,0.0,0.0,0.0,0.0,0.0
0.321,51.38140625579477,42.98098625220417,43.157612079016744,50.0,50.0,50.0,50.0,50.0,50.0,50.0,50.0,50.0,50.0,8.606892559469003,-43.732172883463136,-42.631700442263295,0.0,0.0,0.0,0.0,0.0,0.0,0.0,0.0,0.0,0.0
0.322,51.39002655472895,42.93718596067135,43.114913974056655,50.0,50.0,50.0,50.0,50.0,50.0,50.0,50.0,50.0,50.0,8.633705308875447,-43.86841018216551,-42.76450947790897,0.0,0.0,0.0,0.0,0.0,0.0,0.0,0.0,0.0,0.0
0.323,51.39867366641253,42.893249431839834,43.072083060060926,50.0,50.0,50.0,50.0,50.0,50.0,50.0,50.0,50.0,50.0,8.660518058281893,-44.004647480867895,-42.89731851355466,0.0,0.0,0.0,0.0,0.0,0.0,0.0,0.0,0.0,0.0
0.324,51.40734759084551,42.84917666570962,43.02911933702955,50.0,50.0,50.0,50.0,50.0,50.0,50.0,50.0,50.0,50.0,8.687330807688339,-44.14088477957027,-43.03012754920034,0.0,0.0,0.0,0.0,0.0,0.0,0.0,0.0,0.0,0.0
0.325,51.4160483280279,42.804967662280696,42.98602280496252,50.0,50.0,50.0,50.0,50.0,50.0,50.0,50.0,50.0,50.0,8.714143557094784,-44.27712207827265,-43.162936584846015,0.0,0.0,0.0,0.0,0.0,0.0,0.0,0.0,0.0,0.0
0.326,51.424775877959696,42.760622421553066,42.94279346385985,50.0,50.0,50.0,50.0,50.0,50.0,50.0,50.0,50.0,50.0,8.74095630650123,-44.41335937697503,-43.2957456204917,0.0,0.0,0.0,0.0,0.0,0.0,0.0,0.0,0.0,0.0
0.327,51.433530240640906,42.716140943526746,42.899431313721536,50.0,50.0,50.0,50.0,50.0,50.0,50.0,50.0,50.0,50.0,8.767769055907676,-44.54959667567741,-43.42855465613738,0.0,0.0,0.0,0.0,0.0,0.0,0.0,0.0,0.0,0.0
0.328,51.44231141607152,42.671523228201714,42.85593635454758,50.0,50.0,50.0,50.0,50.0,50.0,50.0,50.0,50.0,50.0,8.794581805314122,-44.68583397437978,-43.561363691783065,0.0,0.0,0.0,0.0,0.0,0.0,0.0,0.0,0.0,0.0
0.329,51.451119404251536,42.626769275577985,42.81230858633798,50.0,50.0,50.0,50.0,50.0,50.0,50.0,50.0,50.0,50.0,8.821394554720566,-44.82207127308215,-43.694172727428736,0.0,0.0,0.0,0.0,0.0,0.0,0.0,0.0,0.0,0.0
0.33,51.459954205180956,42.58187908565555,42.768548009092726,50.0,50.0,50.0,50.0,50.0,50.0,50.0,50.0,50.0,50.0,8.848207304127012,-44.958308571784535,-43.826981763074414,0.0,0.0,0.0,0.0,0.0,0.0,0.0,0.0,0.0,0.0
0.331,51.46881581885979,42.53685265843441,42.724654622811826,50.0,50.0,50.0,50.0,50.0,50.0,50.0,50.0,50.0,50.0,8.875020053533458,-45.09454587048691,-43.95979079872009,0.0,0.0,0.0,0.0,0.0,0.0,0.0,0.0,0.0,0.0
0.332,51.47770424528803,42.491689993914584,42.680628427495286,50.0,50.0,50.0,50.0,50.0,50.0,50.0,50.0,50.0,50.0,8.901832802939904,-45.23078316918929,-44.09259983436578,0.0,0.0,0.0,0.0,0.0,0.0,0.0,0.0,0.0,0.0
0.333,51.48661948446567,42.446391092096036,42.63646942314309,50.0,50.0,50.0,50.0,50.0,50.0,50.0,50.0,50.0,50.0,8.92864555234635,-45.36702046789167,-44.22540887001146,0.0,0.0,0.0,0.0,0.0,0.0,0.0,0.0,0.0,0.0
0.334,51.49556153639272,42.4009559529788,42.59217760975526,50.0,50.0,50.0,50.0,50.0,50.0,50.0,50.0,50.0,50.0,8.955458301752794,-45.50325776659405,-44.35821790565714,0.0,0.0,0.0,0.0,0.0,0.0,0.0,0.0,0.0,0.0
0.335,51.504530401069175,42.355384576562855,42.54775298733178,50.0,50.0,50.0,50.0,50.0,50.0,50.0,50.0,50.0,50.0,8.98227105115924,-45.63949506529642,-44.49102694130282,0.0,0.0,0.0,0.0,0.0,0.0,0.0,0.0,0.0,0.0
0.336,51.51352607849503,42.3096769628482,42.50319555587265,50.0,50.0,50.0,50.0,50.0,50.0,50.0,50.0,50.0,50.0,9.009083800565685,-45.775732363998806,-44.6238359769485,0.0,0.0,0.0,0.0,0.0,0.0,0.0,0.0,0.0,0.0
0.337,51.5225485686703,42.26383311183485,42.45850531537788,50.0,50.0,50.0,50.0,50.0,50.0,50.0,50.0,50.0,50.0,9.035896549972131,-45.91196966270118,-44.756645012594184,0.0,0.0,0.0,0.0,0.0,0.0,0.0,0.0,0.0,0.0
0.338,51.53159787159498,42.2178530235228,42.41368226584746,50.0,50.0,50.0,50.0,50.0,50.0,50.0,50.0,50.0,50.0,9.062709299378575,-46.04820696140355,-44.889454048239855,0.0,0.0,0.0,0.0,0.0,0.0,0.0,0.0,0.0,0.0
0.339,51.54067398726907,42.171736697912046,42.36872640728141,50.0,50.0,50.0,50.0,50.0,50.0,50.0,50.0,50.0,50.0,9.089522048785021,-46.18444426010593,-45.022263083885534,0.0,0.0,0.0,0.0,0.0,0.0,0.0,0.0,0.0,0.0
0.34,51.54977691569255,42.12548413500259,42.32363773967969,50.0,50.0,50.0,50.0,50.0,50.0,50.0,50.0,50.0,50.0,9.116334798191467,-46.32068155880831,-45.15507211953122,0.0,0.0,0.0,0.0,0.0,0.0,0.0,0.0,0.0,0.0
0.341,51.558906656865446,42.07909533479443,42.27841626304234,50.0,50.0,50.0,50.0,50.0,50.0,50.0,50.0,50.0,50.0,9.143147547597913,-46.456918857510686,-45.2878811551769,0.0,0.0,0.0,0.0,0.0,0.0,0.0,0.0,0.0,0.0
0.342,51.56806321078775,42.03257029728757,42.23306197736934,50.0,50.0,50.0,50.0,50.0,50.0,50.0,50.0,50.0,50.0,9.169960297004359,-46.59315615621306,-45.420690190822576,0.0,0.0,0.0,0.0,0.0,0.0,0.0,0.0,0.0,0.0
0.343,51.577246577459455,41.985909022482005,42.18757488266069,50.0,50.0,50.0,50.0,50.0,50.0,50.0,50.0,50.0,50.0,9.196773046410804,-46.729393454915446,-45.55349922646826,0.0,0.0,0.0,0.0,0.0,0.0,0.0,0.0,0.0,0.0
0.344,51.586456756880565,41.939111510377735,42.1419549789164,50.0,50.0,50.0,50.0,50.0,50.0,50.0,50.0,50.0,50.0,9.223585795817248,-46.865630753617815,-45.68630826211393,0.0,0.0,0.0,0.0,0.0,0.0,0.0,0.0,0.0,0.0
0.345,51.59569374905109,41.89217776097477,42.096202266136466,50.0,50.0,50.0,50.0,50.0,50.0,50.0,50.0,50.0,50.0,9.250398545223694,-47.00186805232019,-45.81911729775961,0.0,0.0,0.0,0.0,0.0,0.0,0.0,0.0,0.0,0.0
0.346,51.60495755397101,41.84510777427309,42.05031674432088,50.0,50.0,50.0,50.0,50.0,50.0,50.0,50.0,50.0,50.0,9.277211294630138,-47.13810535102257,-45.9519263334053,0.0,0.0,0.0,0.0,0.0,0.0,0.0,0.0,0.0,0.0
0.347,51.61424817164034,41.79790155027272,42.004298413469655,50.0,50.0,50.0,50.0,50.0,50.0,50.0,50.0,50.0,50.0,9.304024044036584,-47.27434264972495,-46.084735369050975,0.0,0.0,0.0,0.0,0.0,0.0,0.0,0.0,0.0,0.0
0.348,51.62356560205909,41.750559088973645,41.95814727358278,50.0,50.0,50.0,50.0,50.0,50.0,50.0,50.0,50.0,50.0,9.33083679344303,-47.410579948427326,-46.21754440469666,0.0,0.0,0.0,0.0,0.0,0.0,0.0,0.0,0.0,0.0
0.349,51.63290984522723,41.70308039037587,41.91186332466026,50.0,50.0,50.0,50.0,50.0,50.0,50.0,50.0,50.0,50.0,9.357649542849474,-47.546817247129695,-46.35035344034233,0.0,0.0,0.0,0.0,0.0,0.0,0.0,0.0,0.0,0.0
0.35,51.64228090114478,41.65546545447938,41.8654465667021,50.0,50.0,50.0,50.0,50.0,50.0,50.0,50.0,50.0,50.0,9.38446229225592,-47.68305454583207,-46.48316247598801,0.0,0.0,0.0,0.0,0.0,0.0,0.0,0.0,0.0,0.0
0.351,51.651678769811745,41.6077142812842,41.818896999708286,50.0,50.0,50.0,50.0,50.0,50.0,50.0,50.0,50.0,50.0,9.411275041662366,-47.819291844534455,-46.61597151163369,0.0,0.0,0.0,0.0,0.0,0.0,0.0,0.0,0.0,0.0
0.352,51.661103451228115,41.559826870790324,41.772214623678835,50.0,50.0,50.0,50.0,50.0,50.0,50.0,50.0,50.0,50.0,9.438087791068812,-47.95552914323683,-46.748780547279374,0.0,0.0,0.0,0.0,0.0,0.0,0.0,0.0,0.0,0.0
0.353,51.67055494539388,41.51180322299773,41.72539943861373,50.0,50.0,50.0,50.0,50.0,50.0,50.0,50.0,50.0,50.0,9.464900540475258,-48.09176644193921,-46.88158958292505,0.0,0.0,0.0,0.0,0.0,0.0,0.0,0.0,0.0,0.0
0.354,51.68003325230906,41.46364333790643,41.67845144451297,50.0,50.0,50.0,50.0,50.0,50.0,50.0,50.0,50.0,50.0,9.491713289881703,-48.22800374064159,-47.01439861857074,0.0,0.0,0.0,0.0,0.0,0.0,0.0,0.0,0.0,0.0
0.355,51.68953837197365,41.41534721551645,41.631370641376584,50.0,50.0,50.0,50.0,50.0,50.0,50.0,50.0,50.0,50.0,9.51852603928815,-48.364241039343966,-47.147207654216416,0.0,0.0,0.0,0.0,0.0,0.0,0.0,0.0,0.0,0.0
0.356,51.69907030438764,41.36691485582775,41.58415702920455,50.0,50.0,50.0,50.0,50.0,50.0,50.0,50.0,50.0,50.0,9.545338788694595,-48.50047833804634,-47.280016689862094,0.0,0.0,0.0,0.0,0.0,0.0,0.0,0.0,0.0,0.0
0.357,51.70862904955104,41.31834625884036,41.53681060799687,50.0,50.0,50.0,50.0,50.0,50.0,50.0,50.0,50.0,50.0,9.572151538101041,-48.636715636748725,-47.41282572550778,0.0,0.0,0.0,0.0,0.0,0.0,0.0,0.0,0.0,0.0
0.358,51.718214607463835,41.26964142455425,41.48933137775352,50.0,50.0,50.0,50.0,50.0,50.0,50.0,50.0,50.0,50.0,9.598964287507485,-48.7729529354511,-47.54563476115346,0.0,0.0,0.0,0.0,0.0,0.0,0.0,0.0,0.0,0.0
0.359,51.72782697812605,41.220800352969455,41.441719338474556,50.0,50.0,50.0,50.0,50.0,50.0,50.0,50.0,50.0,50.0,9.625777036913929,-48.90919023415347,-47.67844379679913,0.0,0.0,0.0,0.0,0.0,0.0,0.0,0.0,0.0,0.0
0.36,51.73746616153767,41.17182304408595,41.393974490159934,50.0,50.0,50.0,50.0,50.0,50.0,50.0,50.0,50.0,50.0,9.652589786320375,-49.04542753285585,-47.811252832444815,0.0,0.0,0.0,0.0,0.0,0.0,0.0,0.0,0.0,0.0
0.361,51.74713215769869,41.122709497903735,41.346096832809664,50.0,50.0,50.0,50.0,50.0,50.0,50.0,50.0,50.0,50.0,9.67940253572682,-49.18166483155823,-47.94406186809049,0.0,0.0,0.0,0.0,0.0,0.0,0.0,0.0,0.0,0.0
0.362,51.75682496660912,41.07345971442283,41.29808636642376,50.0,50.0,50.0,50.0,50.0,50.0,50.0,50.0,50.0,50.0,9.706215285133267,-49.317902130260606,-48.07687090373617,0.0,0.0,0.0,0.0,0.0,0.0,0.0,0.0,0.0,0.0
0.363,51.76654458826896,41.024073693643224,41.249943091002194,50.0,50.0,50.0,50.0,50.0,50.0,50.0,50.0,50.0,50.0,9.733028034539712,-49.45413942896298,-48.20967993938186,0.0,0.0,0.0,0.0,0.0,0.0,0.0,0.0,0.0,0.0
0.364,51.7762910226782,40.974551435564905,41.20166700654499,50.0,50.0,50.0,50.0,50.0,50.0,50.0,50.0,50.0,50.0,9.759840783946158,-49.590376727665365,-48.342488975027536,0.0,0.0,0.0,0.0,0.0,0.0,0.0,0.0,0.0,0.0
0.365,51.78606426983686,40.92489294018789,41.15325811305214,50.0,50.0,50.0,50.0,50.0,50.0,50.0,50.0,50.0,50.0,9.786653533352604,-49.72661402636774,-48.47529801067322,0.0,0.0,0.0,0.0,0.0,0.0,0.0,0.0,0.0,0.0
0.366,51.7958643297449,40.87509820751217,41.104716410523636,50.0,50.0,50.0,50.0,50.0,50.0,50.0,50.0,50.0,50.0,9.81346628275905,-49.86285132507012,-48.6081070463189,0.0,0.0,0.0,0.0,0.0,0.0,0.0,0.0,0.0,0.0
0.367,51.80569120240237,40.82516723753775,41.0560418989595,50.0,50.0,50.0,50.0,50.0,50.0,50.0,50.0,50.0,50.0,9.840279032165496,-49.9990886237725,-48.74091608196458,0.0,0.0,0.0,0.0,0.0,0.0,0.0,0.0,0.0,0.0
0.368,51.81554488780923,40.77510003026462,41.00723457835971,50.0,50.0,50.0,50.0,50.0,50.0,50.0,50.0,50.0,50.0,9.86709178157194,-50.13532592247487,-48.87372511761025,0.0,0.0,0.0,0.0,0.0,0.0,0.0,0.0,0.0,0.0
0.369,51.82542538596552,40.724896585692804,40.95829444872428,50.0,50.0,50.0,50.0,50.0,50.0,50.0,50.0,50.0,50.0,9.893904530978386,-50.271563221177246,-49.006534153255934,0.0,0.0,0.0,0.0,0.0,0.0,0.0,0.0,0.0,0.0
0.37,51.83533269687119,40.67455690382227,40.9092215100532,50.0,50.0,50.0,50.0,50.0,50.0,50.0,50.0,50.0,50.0,9.920717280384832,-50.40780051987962,-49.13934318890161,0.0,0.0,0.0,0.0,0.0,0.0,0.0,0.0,0.0,0.0
0.371,51.845266820526284,40.62408098465304,40.86001576234648,50.0,50.0,50.0,50.0,50.0,50.0,50.0,50.0,50.0,50.0,9.947530029791276,-50.544037818582005,-49.2721522245473,0.0,0.0,0.0,0.0,0.0,0.0,0.0,0.0,0.0,0.0
0.372,51.85522775693077,40.573468828185106,40.81067720560411,50.0,50.0,50.0,50.0,50.0,50.0,50.0,50.0,50.0,50.0,9.974342779197721,-50.68027511728438,-49.40496126019298,0.0,0.0,0.0,0.0,0.0,0.0,0.0,0.0,0.0,0.0
0.373,51.86521550608468,40.52272043441847,40.76120583982609,50.0,50.0,50.0,50.0,50.0,50.0,50.0,50.0,50.0,50.0,10.001155528604167,-50.81651241598676,-49.537770295838655,0.0,0.0,0.0,0.0,0.0,0.0,0.0,0.0,0.0,0.0
0.374,51.875230067987985,40.47183580335313,40.71160166501243,50.0,50.0,50.0,50.0,50.0,50.0,50.0,50.0,50.0,50.0,10.027968278010613,-50.95274971468914,-49.67057933148434,0.0,0.0,0.0,0.0,0.0,0.0,0.0,0.0,0.0,0.0
0.375,51.8852714426407,40.42081493498909,40.661864681163124,50.0,50.0,50.0,50.0,50.0,50.0,50.0,50.0,50.0,50.0,10.054781027417059,-51.08898701339152,-49.80338836713002,0.0,0.0,0.0,0.0,0.0,0.0,0.0,0.0,0.0,0.0
0.376,51.89533963004283,40.36965782932635,40.611994888278176,50.0,50.0,50.0,50.0,50.0,50.0,50.0,50.0,50.0,50.0,10.081593776823505,-51.22522431209389,-49.936197402775704,0.0,0.0,0.0,0.0,0.0,0.0,0.0,0.0,0.0,0.0
0.377,51.90543463019435,40.318364486364906,40.56199228635757,50.0,50.0,50.0,50.0,50.0,50.0,50.0,50.0,50.0,50.0,10.10840652622995,-51.361461610796276,-50.06900643842138,0.0,0.0,0.0,0.0,0.0,0.0,0.0,0.0,0.0,0.0
0.378,51.915556443095284,40.26693490610476,40.51185687540133,50.0,50.0,50.0,50.0,50.0,50.0,50.0,50.0,50.0,50.0,10.135219275636395,-51.497698909498645,-50.201815474067054,0.0,0.0,0.0,0.0,0.0,0.0,0.0,0.0,0.0,0.0
0.379,51.92570471654645,40.21537087809246,40.461590399924,50.0,50.0,50.0,50.0,50.0,50.0,50.0,50.0,50.0,50.0,10.157686123982394,-51.611854406296715,-50.31309837227341,0.0,0.0,0.0,0.0,0.0,0.0,0.0,0.0,0.0,0.0
0.38,51.93586240267044,40.16375902368616,40.41127730155173,50.0,50.0,50.0,50.0,50.0,50.0,50.0,50.0,50.0,50.0,10.157686123982394,-51.611854406296715,-50.31309837227341,0.0,0.0,0.0,0.0,0.0,0.0,0.0,0.0,0.0,0.0
0.381,51.94602008879442,40.112147169279865,40.360964203179456,50.0,50.0,50.0,50.0,50.0,50.0,50.0,50.0,50.0,50.0,10.157686123982394,-51.611854406296715,-50.31309837227341,0.0,0.0,0.0,0.0,0.0,0.0,0.0,0.0,0.0,0.0
0.382,51.9561777749184,40.06053531487356,40.31065110480718,50.0,50.0,50.0,50.0,50.0,50.0,50.0,50.0,50.0,50.0,10.157686123982394,-51.611854406296715,-50.31309837227341,0.0,0.0,0.0,0.0,0.0,0.0,0.0,0.0,0.0,0.0
0.383,51.966335461042384,40.008923460467265,40.26033800643491,50.0,50.0,50.0,50.0,50.0,50.0,50.0,50.0,50.0,50.0,10.157686123982394,-51.611854406296715,-50.31309837227341,0.0,0.0,0.0,0.0,0.0,0.0,0.0,0.0,0.0,0.0
0.384,51.976493147166366,39.95731160606097,40.21002490806263,50.0,50.0,50.0,50.0,50.0,50.0,50.0,50.0,50.0,50.0,10.157686123982394,-51.611854406296715,-50.31309837227341,0.0,0.0,0.0,0.0,0.0,0.0,0.0,0.0,0.0,0.0
0.385,51.98665083329034,39.90569975165467,40.15971180969035,50.0,50.0,50.0,50.0,50.0,50.0,50.0,50.0,50.0,50.0,10.157686123982394,-51.611854406296715,-50.31309837227341,0.0,0.0,0.0,0.0,0.0,0.0,0.0,0.0,0.0,0.0
0.386,51.99680851941433,39.85408789724838,40.10939871131808,50.0,50.0,50.0,50.0,50.0,50.0,50.0,50.0,50.0,50.0,10.157686123982394,-51.611854406296715,-50.31309837227341,0.0,0.0,0.0,0.0,0.0,0.0,0.0,0.0,0.0,0.0
0.387,52.00696620553831,39.80247604284208,40.05908561294581,50.0,50.0,50.0,50.0,50.0,50.0,50.0,50.0,50.0,50.0,10.157686123982394,-51.611854406296715,-50.31309837227341,0.0,0.0,0.0,0.0,0.0,0.0,0.0,0.0,0.0,0.0
0.388,52.017123891662294,39.750864188435784,40.008772514573536,50.0,50.0,50.0,50.0,50.0,50.0,50.0,50.0,50.0,50.0,10.157686123982394,-51.611854406296715,-50.31309837227341,0.0,0.0,0.0,0.0,0.0,0.0,0.0,0.0,0.0,0.0
0.389,52.02728157778627,39.69925233402948,39.95845941620126,50.0,50.0,50.0,50.0,50.0,50.0,50.0,50.0,50.0,50.0,10.157686123982394,-51.611854406296715,-50.31309837227341,0.0,0.0,0.0,0.0,0.0,0.0,0.0,0.0,0.0,0.0
0.39,52.03743926391026,39.64764047962319,39.908146317828994,50.0,50.0,50.0,50.0,50.0,50.0,50.0,50.0,50.0,50.0,10.157686123982394,-51.611854406296715,-50.31309837227341,0.0,0.0,0.0,0.0,0.0,0.0,0.0,0.0,0.0,0.0
0.391,52.04759695003424,39.596028625216896,39.857833219456715,50.0,50.0,50.0,50.0,50.0,50.0,50.0,50.0,50.0,50.0,10.157686123982394,-51.611854406296715,-50.31309837227341,0.0,0.0,0.0,0.0,0.0,0.0,0.0,0.0,0.0,0.0
0.392,52.057754636158215,39.54441677081059,39.80752012108444,50.0,50.0,50.0,50.0,50.0,50.0,50.0,50.0,50.0,50.0,10.157686123982394,-51.611854406296715,-50.31309837227341,0.0,0.0,0.0,0.0,0.0,0.0,0.0,0.0,0.0,0.0
0.393,52.0679123222822,39.492804916404296,39.757207022712166,50.0,50.0,50.0,50.0,50.0,50.0,50.0,50.0,50.0,50.0,10.157686123982394,-51.611854406296715,-50.31309837227341,0.0,0.0,0.0,0.0,0.0,0.0,0.0,0.0,0.0,0.0
0.394,52.07807000840619,39.44119306199801,39.7068939243399,50.0,50.0,50.0,50.0,50.0,50.0,50.0,50.0,50.0,50.0,10.157686123982394,-51.611854406296715,-50.31309837227341,0.0,0.0,0.0,0.0,0.0,0.0,0.0,0.0,0.0,0.0
0.395,52.08822769453017,39.389581207591704,39.65658082596762,50.0,50.0,50.0,50.0,50.0,50.0,50.0,50.0,50.0,50.0,10.157686123982394,-51.611854406296715,-50.31309837227341,0.0,0.0,0.0,0.0,0.0,0.0,0.0,0.0,0.0,0.0
0.396,52.09838538065415,39.33796935318541,39.60626772759535,50.0,50.0,50.0,50.0,50.0,50.0,50.0,50.0,50.0,50.0,10.157686123982394,-51.611854406296715,-50.31309837227341,0.0,0.0,0.0,0.0,0.0,0.0,0.0,0.0,0.0,0.0
0.397,52.10854306677814,39.28635749877912,39.55595462922308,50.0,50.0,50.0,50.0,50.0,50.0,50.0,50.0,50.0,50.0,10.157686123982394,-51.611854406296715,-50.31309837227341,0.0,0.0,0.0,0.0,0.0,0.0,0.0,0.0,0.0,0.0
0.398,52.11870075290212,39.23474564437282,39.50564153085081,50.0,50.0,50.0,50.0,50.0,50.0,50.0,50.0,50.0,50.0,10.157686123982394,-51.611854406296715,-50.31309837227341,0.0,0.0,0.0,0.0,0.0,0.0,0.0,0.0,0.0,0.0
0.399,52.1288584390261,39.18313378996652,39.455328432478524,50.0,50.0,50.0,50.0,50.0,50.0,50.0,50.0,50.0,50.0,10.157686123982394,-51.611854406296715,-50.31309837227341,0.0,0.0,0.0,0.0,0.0,0.0,0.0,0.0,0.0,0.0
0.4,52.13901612515008,39.13152193556022,39.40501533410625,50.0,50.0,50.0,50.0,50.0,50.0,50.0,50.0,50.0,50.0,10.157686123982394,-51.611854406296715,-50.31309837227341,0.0,0.0,0.0,0.0,0.0,0.0,0.0,0.0,0.0,0.0
0.401,52.14917381127407,39.079910081153926,39.35470223573398,50.0,50.0,50.0,50.0,50.0,50.0,50.0,50.0,50.0,50.0,10.157686123982394,-51.611854406296715,-50.31309837227341,0.0,0.0,0.0,0.0,0.0,0.0,0.0,0.0,0.0,0.0
0.402,52.15933149739804,39.02829822674762,39.3043891373617,50.0,50.0,50.0,50.0,50.0,50.0,50.0,50.0,50.0,50.0,10.157686123982394,-51.611854406296715,-50.31309837227341,0.0,0.0,0.0,0.0,0.0,0.0,0.0,0.0,0.0,0.0
0.403,52.16948918352203,38.976686372341334,39.25407603898943,50.0,50.0,50.0,50.0,50.0,50.0,50.0,50.0,50.0,50.0,10.157686123982394,-51.611854406296715,-50.31309837227341,0.0,0.0,0.0,0.0,0.0,0.0,0.0,0.0,0.0,0.0
0.404,52.17964686964601,38.92507451793504,39.20376294061716,50.0,50.0,50.0,50.0,50.0,50.0,50.0,50.0,50.0,50.0,10.157686123982394,-51.611854406296715,-50.31309837227341,0.0,0.0,0.0,0.0,0.0,0.0,0.0,0.0,0.0,0.0
0.405,52.189804555769996,38.87346266352874,39.15344984224489,50.0,50.0,50.0,50.0,50.0,50.0,50.0,50.0,50.0,50.0,10.157686123982394,-51.611854406296715,-50.31309837227341,0.0,0.0,0.0,0.0,0.0,0.0,0.0,0.0,0.0,0.0
0.406,52.19996224189397,38.82185080912244,39.10313674387261,50.0,50.0,50.0,50.0,50.0,50.0,50.0,50.0,50.0,50.0,10.157686123982394,-51.611854406296715,-50.31309837227341,0.0,0.0,0.0,0.0,0.0,0.0,0.0,0.0,0.0,0.0
0.407,52.21011992801796,38.77023895471615,39.05282364550035,50.0,50.0,50.0,50.0,50.0,50.0,50.0,50.0,50.0,50.0,10.157686123982394,-51.611854406296715,-50.31309837227341,0.0,0.0,0.0,0.0,0.0,0.0,0.0,0.0,0.0,0.0
0.408,52.220277614141935,38.718627100309845,39.00251054712807,50.0,50.0,50.0,50.0,50.0,50.0,50.0,50.0,50.0,50.0,10.157686123982394,-51.611854406296715,-50.31309837227341,0.0,0.0,0.0,0.0,0.0,0.0,0.0,0.0,0.0,0.0
0.409,52.230435300265924,38.667015245903556,38.9521974487558,50.0,50.0,50.0,50.0,50.0,50.0,50.0,50.0,50.0,50.0,10.157686123982394,-51.611854406296715,-50.31309837227341,0.0,0.0,0.0,0.0,0.0,0.0,0.0,0.0,0.0,0.0
0.41,52.240592986389906,38.61540339149726,38.901884350383526,50.0,50.0,50.0,50.0,50.0,50.0,50.0,50.0,50.0,50.0,10.157686123982394,-51.611854406296715,-50.31309837227341,0.0,0.0,0.0,0.0,0.0,0.0,0.0,0.0,0.0,0.0
0.411,52.25075067251389,38.563791537090964,38.851571252011254,50.0,50.0,50.0,50.0,50.0,50.0,50.0,50.0,50.0,50.0,10.157686123982394,-51.611854406296715,-50.31309837227341,0.0,0.0,0.0,0.0,0.0,0.0,0.0,0.0,0.0,0.0
0.412,52.26090835863786,38.51217968268466,38.80125815363897,50.0,50.0,50.0,50.0,50.0,50.0,50.0,50.0,50.0,50.0,10.157686123982394,-51.611854406296715,-50.31309837227341,0.0,0.0,0.0,0.0,0.0,0.0,0.0,0.0,0.0,0.0
0.413,52.27106604476185,38.460567828278364,38.750945055266705,50.0,50.0,50.0,50.0,50.0,50.0,50.0,50.0,50.0,50.0,10.157686123982394,-51.611854406296715,-50.31309837227341,0.0,0.0,0.0,0.0,0.0,0.0,0.0,0.0,0.0,0.0
0.414,52.281223730885834,38.40895597387207,38.700631956894426,50.0,50.0,50.0,50.0,50.0,50.0,50.0,50.0,50.0,50.0,10.157686123982394,-51.611854406296715,-50.31309837227341,0.0,0.0,0.0,0.0,0.0,0.0,0.0,0.0,0.0,0.0
0.415,52.291381417009816,38.35734411946577,38.65031885852215,50.0,50.0,50.0,50.0,50.0,50.0,50.0,50.0,50.0,50.0,10.157686123982394,-51.611854406296715,-50.31309837227341,0.0,0.0,0.0,0.0,0.0,0.0,0.0,0.0,0.0,0.0
0.416,52.30153910313379,38.305732265059476,38.60000576014988,50.0,50.0,50.0,50.0,50.0,50.0,50.0,50.0,50.0,50.0,10.157686123982394,-51.611854406296715,-50.31309837227341,0.0,0.0,0.0,0.0,0.0,0.0,0.0,0.0,0.0,0.0
0.417,52.31169678925779,38.25412041065319,38.54969266177761,50.0,50.0,50.0,50.0,50.0,50.0,50.0,50.0,50.0,50.0,10.157686123982394,-51.611854406296715,-50.31309837227341,0.0,0.0,0.0,0.0,0.0,0.0,0.0,0.0,0.0,0.0
0.418,52.32185447538176,38.20250855624688,38.499379563405334,50.0,50.0,50.0,50.0,50.0,50.0,50.0,50.0,50.0,50.0,10.157686123982394,-51.611854406296715,-50.31309837227341,0.0,0.0,0.0,0.0,0.0,0.0,0.0,0.0,0.0,0.0
0.419,52.332012161505745,38.15089670184058,38.449066465033056,50.0,50.0,50.0,50.0,50.0,50.0,50.0,50.0,50.0,50.0,10.157686123982394,-51.611854406296715,-50.31309837227341,0.0,0.0,0.0,0.0,0.0,0.0,0.0,0.0,0.0,0.0
0.42,52.342169847629734,38.09928484743429,38.39875336666079,50.0,50.0,50.0,50.0,50.0,50.0,50.0,50.0,50.0,50.0,10.157686123982394,-51.611854406296715,-50.31309837227341,0.0,0.0,0.0,0.0,0.0,0.0,0.0,0.0,0.0,0.0
0.421,52.352327533753716,38.047672993028,38.34844026828852,50.0,50.0,50.0,50.0,50.0,50.0,50.0,50.0,50.0,50.0,10.157686123982394,-51.611854406296715,-50.31309837227341,0.0,0.0,0.0,0.0,0.0,0.0,0.0,0.0,0.0,0.0
0.422,52.362485219877684,37.99606113862169,38.298127169916235,50.0,50.0,50.0,50.0,50.0,50.0,50.0,50.0,50.0,50.0,10.157686123982394,-51.611854406296715,-50.31309837227341,0.0,0.0,0.0,0.0,0.0,0.0,0.0,0.0,0.0,0.0
0.423,52.37264290600168,37.9444492842154,38.24781407154397,50.0,50.0,50.0,50.0,50.0,50.0,50.0,50.0,50.0,50.0,10.157686123982394,-51.611854406296715,-50.31309837227341,0.0,0.0,0.0,0.0,0.0,0.0,0.0,0.0,0.0,0.0
0.424,52.38280059212566,37.892837429809106,38.1975009731717,50.0,50.0,50.0,50.0,50.0,50.0,50.0,50.0,50.0,50.0,10.157686123982394,-51.611854406296715,-50.31309837227341,0.0,0.0,0.0,0.0,0.0,0.0,0.0,0.0,0.0,0.0
0.425,52.39295827824964,37.8412255754028,38.14718787479942,50.0,50.0,50.0,50.0,50.0,50.0,50.0,50.0,50.0,50.0,10.157686123982394,-51.611854406296715,-50.31309837227341,0.0,0.0,0.0,0.0,0.0,0.0,0.0,0.0,0.0,0.0
0.426,52.403115964373626,37.789613720996506,38.09687477642715,50.0,50.0,50.0,50.0,50.0,50.0,50.0,50.0,50.0,50.0,10.157686123982394,-51.611854406296715,-50.31309837227341,0.0,0.0,0.0,0.0,0.0,0.0,0.0,0.0,0.0,0.0
0.427,52.41327365049761,37.73800186659022,38.04656167805488,50.0,50.0,50.0,50.0,50.0,50.0,50.0,50.0,50.0,50.0,10.157686123982394,-51.611854406296715,-50.31309837227341,0.0,0.0,0.0,0.0,0.0,0.0,0.0,0.0,0.0,0.0
0.428,52.42343133662159,37.68639001218392,37.99624857968261,50.0,50.0,50.0,50.0,50.0,50.0,50.0,50.0,50.0,50.0,10.157686123982394,-51.611854406296715,-50.31309837227341,0.0,0.0,0.0,0.0,0.0,0.0,0.0,0.0,0.0,0.0
0.429,52.433589022745565,37.63477815777762,37.94593548131033,50.0,50.0,50.0,50.0,50.0,50.0,50.0,50.0,50.0,50.0,10.157686123982394,-51.611854406296715,-50.31309837227341,0.0,0.0,0.0,0.0,0.0,0.0,0.0,0.0,0.0,0.0
0.43,52.443746708869554,37.58316630337132,37.89562238293805,50.0,50.0,50.0,50.0,50.0,50.0,50.0,50.0,50.0,50.0,10.157686123982394,-51.611854406296715,-50.31309837227341,0.0,0.0,0.0,0.0,0.0,0.0,0.0,0.0,0.0,0.0
0.431,52.45390439499354,37.531554448965025,37.84530928456578,50.0,50.0,50.0,50.0,50.0,50.0,50.0,50.0,50.0,50.0,10.157686123982394,-51.611854406296715,-50.31309837227341,0.0,0.0,0.0,0.0,0.0,0.0,0.0,0.0,0.0,0.0
0.432,52.46406208111752,37.47994259455872,37.7949961861935,50.0,50.0,50.0,50.0,50.0,50.0,50.0,50.0,50.0,50.0,10.157686123982394,-51.611854406296715,-50.31309837227341,0.0,0.0,0.0,0.0,0.0,0.0,0.0,0.0,0.0,0.0
0.433,52.4742197672415,37.42833074015243,37.74468308782123,50.0,50.0,50.0,50.0,50.0,50.0,50.0,50.0,50.0,50.0,10.157686123982394,-51.611854406296715,-50.31309837227341,0.0,0.0,0.0,0.0,0.0,0.0,0.0,0.0,0.0,0.0
0.434,52.48437745336548,37.376718885746136,37.69436998944896,50.0,50.0,50.0,50.0,50.0,50.0,50.0,50.0,50.0,50.0,10.157686123982394,-51.611854406296715,-50.31309837227341,0.0,0.0,0.0,0.0,0.0,0.0,0.0,0.0,0.0,0.0
0.435,52.49453513948947,37.32510703133984,37.64405689107669,50.0,50.0,50.0,50.0,50.0,50.0,50.0,50.0,50.0,50.0,10.157686123982394,-51.611854406296715,-50.31309837227341,0.0,0.0,0.0,0.0,0.0,0.0,0.0,0.0,0.0,0.0
0.436,52.504692825613446,37.273495176933544,37.593743792704416,50.0,50.0,50.0,50.0,50.0,50.0,50.0,50.0,50.0,50.0,10.157686123982394,-51.611854406296715,-50.31309837227341,0.0,0.0,0.0,0.0,0.0,0.0,0.0,0.0,0.0,0.0
0.437,52.51485051173743,37.22188332252724,37.54343069433214,50.0,50.0,50.0,50.0,50.0,50.0,50.0,50.0,50.0,50.0,10.157686123982394,-51.611854406296715,-50.31309837227341,0.0,0.0,0.0,0.0,0.0,0.0,0.0,0.0,0.0,0.0
0.438,52.52500819786141,37.170271468120944,37.493117595959866,50.0,50.0,50.0,50.0,50.0,50.0,50.0,50.0,50.0,50.0,10.157686123982394,-51.611854406296715,-50.31309837227341,0.0,0.0,0.0,0.0,0.0,0.0,0.0,0.0,0.0,0.0
0.439,52.5351658839854,37.118659613714655,37.442804497587595,50.0,50.0,50.0,50.0,50.0,50.0,50.0,50.0,50.0,50.0,10.157686123982394,-51.611854406296715,-50.31309837227341,0.0,0.0,0.0,0.0,0.0,0.0,0.0,0.0,0.0,0.0
0.44,52.545323570109375,37.06704775930835,37.39249139921532,50.0,50.0,50.0,50.0,50.0,50.0,50.0,50.0,50.0,50.0,10.157686123982394,-51.611854406296715,-50.31309837227341,0.0,0.0,0.0,0.0,0.0,0.0,0.0,0.0,0.0,0.0
0.441,52.55548125623336,37.015435904902056,37.342178300843045,50.0,50.0,50.0,50.0,50.0,50.0,50.0,50.0,50.0,50.0,10.157686123982394,-51.611854406296715,-50.31309837227341,0.0,0.0,0.0,0.0,0.0,0.0,0.0,0.0,0.0,0.0
0.442,52.56563894235734,36.96382405049576,37.291865202470774,50.0,50.0,50.0,50.0,50.0,50.0,50.0,50.0,50.0,50.0,10.157686123982394,-51.611854406296715,-50.31309837227341,0.0,0.0,0.0,0.0,0.0,0.0,0.0,0.0,0.0,0.0
0.443,52.57579662848133,36.91221219608946,37.2415521040985,50.0,50.0,50.0,50.0,50.0,50.0,50.0,50.0,50.0,50.0,10.157686123982394,-51.611854406296715,-50.31309837227341,0.0,0.0,0.0,0.0,0.0,0.0,0.0,0.0,0.0,0.0
0.444,52.5859543146053,36.86060034168317,37.191239005726224,50.0,50.0,50.0,50.0,50.0,50.0,50.0,50.0,50.0,50.0,10.157686123982394,-51.611854406296715,-50.31309837227341,0.0,0.0,0.0,0.0,0.0,0.0,0.0,0.0,0.0,0.0
0.445,52.596112000729285,36.80898848727687,37.140925907353946,50.0,50.0,50.0,50.0,50.0,50.0,50.0,50.0,50.0,50.0,10.157686123982394,-51.611854406296715,-50.31309837227341,0.0,0.0,0.0,0.0,0.0,0.0,0.0,0.0,0.0,0.0
0.446,52.60626968685328,36.75737663287058,37.09061280898168,50.0,50.0,50.0,50.0,50.0,50.0,50.0,50.0,50.0,50.0,10.157686123982394,-51.611854406296715,-50.31309837227341,0.0,0.0,0.0,0.0,0.0,0.0,0.0,0.0,0.0,0.0
0.447,52.616427372977256,36.70576477846428,37.0402997106094,50.0,50.0,50.0,50.0,50.0,50.0,50.0,50.0,50.0,50.0,10.157686123982394,-51.611854406296715,-50.31309837227341,0.0,0.0,0.0,0.0,0.0,0.0,0.0,0.0,0.0,0.0
0.448,52.62658505910123,36.654152924057975,36.989986612237125,50.0,50.0,50.0,50.0,50.0,50.0,50.0,50.0,50.0,50.0,10.157686123982394,-51.611854406296715,-50.31309837227341,0.0,0.0,0.0,0.0,0.0,0.0,0.0,0.0,0.0,0.0
0.449,52.63674274522522,36.602541069651686,36.93967351386486,50.0,50.0,50.0,50.0,50.0,50.0,50.0,50.0,50.0,50.0,10.157686123982394,-51.611854406296715,-50.31309837227341,0.0,0.0,0.0,0.0,0.0,0.0,0.0,0.0,0.0,0.0
0.45,52.6469004313492,36.55092921524539,36.88936041549258,50.0,50.0,50.0,50.0,50.0,50.0,50.0,50.0,50.0,50.0,10.157686123982394,-51.611854406296715,-50.31309837227341,0.0,0.0,0.0,0.0,0.0,0.0,0.0,0.0,0.0,0.0
0.451,52.65705811747318,36.499317360839086,36.839047317120304,50.0,50.0,50.0,50.0,50.0,50.0,50.0,50.0,50.0,50.0,10.157686123982394,-51.611854406296715,-50.31309837227341,0.0,0.0,0.0,0.0,0.0,0.0,0.0,0.0,0.0,0.0
0.452,52.66721580359717,36.4477055064328,36.78873421874804,50.0,50.0,50.0,50.0,50.0,50.0,50.0,50.0,50.0,50.0,10.157686123982394,-51.611854406296715,-50.31309837227341,0.0,0.0,0.0,0.0,0.0,0.0,0.0,0.0,0.0,0.0
0.453,52.67737348972115,36.3960936520265,36.73842112037577,50.0,50.0,50.0,50.0,50.0,50.0,50.0,50.0,50.0,50.0,10.157686123982394,-51.611854406296715,-50.31309837227341,0.0,0.0,0.0,0.0,0.0,0.0,0.0,0.0,0.0,0.0
0.454,52.68753117584513,36.3444817976202,36.68810802200349,50.0,50.0,50.0,50.0,50.0,50.0,50.0,50.0,50.0,50.0,10.157686123982394,-51.611854406296715,-50.31309837227341,0.0,0.0,0.0,0.0,0.0,0.0,0.0,0.0,0.0,0.0
0.455,52.69768886196911,36.2928699432139,36.63779492363122,50.0,50.0,50.0,50.0,50.0,50.0,50.0,50.0,50.0,50.0,10.157686123982394,-51.611854406296715,-50.31309837227341,0.0,0.0,0.0,0.0,0.0,0.0,0.0,0.0,0.0,0.0
0.456,52.7078465480931,36.24125808880761,36.58748182525895,50.0,50.0,50.0,50.0,50.0,50.0,50.0,50.0,50.0,50.0,10.157686123982394,-51.611854406296715,-50.31309837227341,0.0,0.0,0.0,0.0,0.0,0.0,0.0,0.0,0.0,0.0
0.457,52.71800423421708,36.189646234401316,36.53716872688668,50.0,50.0,50.0,50.0,50.0,50.0,50.0,50.0,50.0,50.0,10.157686123982394,-51.611854406296715,-50.31309837227341,0.0,0.0,0.0,0.0,0.0,0.0,0.0,0.0,0.0,0.0
0.458,52.72816192034106,36.13803437999501,36.4868556285144,50.0,50.0,50.0,50.0,50.0,50.0,50.0,50.0,50.0,50.0,10.157686123982394,-51.611854406296715,-50.31309837227341,0.0,0.0,0.0,0.0,0.0,0.0,0.0,0.0,0.0,0.0
0.459,52.73831960646504,36.086422525588716,36.43654253014213,50.0,50.0,50.0,50.0,50.0,50.0,50.0,50.0,50.0,50.0,10.157686123982394,-51.611854406296715,-50.31309837227341,0.0,0.0,0.0,0.0,0.0,0.0,0.0,0.0,0.0,0.0
0.46,52.74847729258903,36.03481067118242,36.386229431769856,50.0,50.0,50.0,50.0,50.0,50.0,50.0,50.0,50.0,50.0,10.157686123982394,-51.611854406296715,-50.31309837227341,0.0,0.0,0.0,0.0,0.0,0.0,0.0,0.0,0.0,0.0
0.461,52.758634978713005,35.98319881677612,36.33591633339758,50.0,50.0,50.0,50.0,50.0,50.0,50.0,50.0,50.0,50.0,10.157686123982394,-51.611854406296715,-50.31309837227341,0.0,0.0,0.0,0.0,0.0,0.0,0.0,0.0,0.0,0.0
0.462,52.768792664836994,35.93158696236983,36.285603235025306,50.0,50.0,50.0,50.0,50.0,50.0,50.0,50.0,50.0,50.0,10.157686123982394,-51.611854406296715,-50.31309837227341,0.0,0.0,0.0,0.0,0.0,0.0,0.0,0.0,0.0,0.0
0.463,52.77895035096097,35.87997510796353,36.23529013665303,50.0,50.0,50.0,50.0,50.0,50.0,50.0,50.0,50.0,50.0,10.157686123982394,-51.611854406296715,-50.31309837227341,0.0,0.0,0.0,0.0,0.0,0.0,0.0,0.0,0.0,0.0
0.464,52.78910803708496,35.828363253557235,36.184977038280756,50.0,50.0,50.0,50.0,50.0,50.0,50.0,50.0,50.0,50.0,10.157686123982394,-51.611854406296715,-50.31309837227341,0.0,0.0,0.0,0.0,0.0,0.0,0.0,0.0,0.0,0.0
0.465,52.79926572320893,35.77675139915094,36.134663939908485,50.0,50.0,50.0,50.0,50.0,50.0,50.0,50.0,50.0,50.0,10.157686123982394,-51.611854406296715,-50.31309837227341,0.0,0.0,0.0,0.0,0.0,0.0,0.0,0.0,0.0,0.0
0.466,52.80942340933292,35.725139544744636,36.08435084153621,50.0,50.0,50.0,50.0,50.0,50.0,50.0,50.0,50.0,50.0,10.157686123982394,-51.611854406296715,-50.31309837227341,0.0,0.0,0.0,0.0,0.0,0.0,0.0,0.0,0.0,0.0
0.467,52.8195810954569,35.67352769033834,36.034037743163935,50.0,50.0,50.0,50.0,50.0,50.0,50.0,50.0,50.0,50.0,10.157686123982394,-51.611854406296715,-50.31309837227341,0.0,0.0,0.0,0.0,0.0,0.0,0.0,0.0,0.0,0.0
0.468,52.829738781580886,35.62191583593204,35.983724644791664,50.0,50.0,50.0,50.0,50.0,50.0,50.0,50.0,50.0,50.0,10.157686123982394,-51.611854406296715,-50.31309837227341,0.0,0.0,0.0,0.0,0.0,0.0,0.0,0.0,0.0,0.0
0.469,52.83989646770487,35.570303981525754,35.93341154641939,50.0,50.0,50.0,50.0,50.0,50.0,50.0,50.0,50.0,50.0,10.157686123982394,-51.611854406296715,-50.31309837227341,0.0,0.0,0.0,0.0,0.0,0.0,0.0,0.0,0.0,0.0
0.47,52.85005415382885,35.51869212711946,35.88309844804712,50.0,50.0,50.0,50.0,50.0,50.0,50.0,50.0,50.0,50.0,10.157686123982394,-51.611854406296715,-50.31309837227341,0.0,0.0,0.0,0.0,0.0,0.0,0.0,0.0,0.0,0.0
0.471,52.86021183995283,35.46708027271316,35.83278534967484,50.0,50.0,50.0,50.0,50.0,50.0,50.0,50.0,50.0,50.0,10.157686123982394,-51.611854406296715,-50.31309837227341,0.0,0.0,0.0,0.0,0.0,0.0,0.0,0.0,0.0,0.0
0.472,52.870369526076814,35.415468418306865,35.78247225130257,50.0,50.0,50.0,50.0,50.0,50.0,50.0,50.0,50.0,50.0,10.157686123982394,-51.611854406296715,-50.31309837227341,0.0,0.0,0.0,0.0,0.0,0.0,0.0,0.0,0.0,0.0
0.473,52.880527212200796,35.36385656390056,35.7321591529303,50.0,50.0,50.0,50.0,50.0,50.0,50.0,50.0,50.0,50.0,10.157686123982394,-51.611854406296715,-50.31309837227341,0.0,0.0,0.0,0.0,0.0,0.0,0.0,0.0,0.0,0.0
0.474,52.89068489832478,35.312244709494266,35.68184605455802,50.0,50.0,50.0,50.0,50.0,50.0,50.0,50.0,50.0,50.0,10.157686123982394,-51.611854406296715,-50.31309837227341,0.0,0.0,0.0,0.0,0.0,0.0,0.0,0.0,0.0,0.0
0.475,52.90084258444876,35.26063285508797,35.63153295618575,50.0,50.0,50.0,50.0,50.0,50.0,50.0,50.0,50.0,50.0,10.157686123982394,-51.611854406296715,-50.31309837227341,0.0,0.0,0.0,0.0,0.0,0.0,0.0,0.0,0.0,0.0
0.476,52.91100027057274,35.20902100068167,35.58121985781348,50.0,50.0,50.0,50.0,50.0,50.0,50.0,50.0,50.0,50.0,10.157686123982394,-51.611854406296715,-50.31309837227341,0.0,0.0,0.0,0.0,0.0,0.0,0.0,0.0,0.0,0.0
0.477,52.921157956696725,35.15740914627538,35.5309067594412,50.0,50.0,50.0,50.0,50.0,50.0,50.0,50.0,50.0,50.0,10.157686123982394,-51.611854406296715,-50.31309837227341,0.0,0.0,0.0,0.0,0.0,0.0,0.0,0.0,0.0,0.0
0.478,52.93131564282071,35.10579729186908,35.48059366106893,50.0,50.0,50.0,50.0,50.0,50.0,50.0,50.0,50.0,50.0,10.157686123982394,-51.611854406296715,-50.31309837227341,0.0,0.0,0.0,0.0,0.0,0.0,0.0,0.0,0.0,0.0
0.479,52.94147332894469,35.054185437462785,35.43028056269666,50.0,50.0,50.0,50.0,50.0,50.0,50.0,50.0,50.0,50.0,10.157686123982394,-51.611854406296715,-50.31309837227341,0.0,0.0,0.0,0.0,0.0,0.0,0.0,0.0,0.0,0.0
0.48,52.95163101506867,35.00257358305649,35.37996746432438,50.0,50.0,50.0,50.0,50.0,50.0,50.0,50.0,50.0,50.0,10.157686123982394,-51.611854406296715,-50.31309837227341,0.0,0.0,0.0,0.0,0.0,0.0,0.0,0.0,0.0,0.0
